!!!!SEGMENT: pl-sa--177-a-v-7--002_luna-georgius--missa-ex-d-kyrie.krn
!!!cenid: 17xx:466
!!!COM: Luna, Georgius
!!!COM-rismid: pe41010079
!!!CDT:
!!!CNT:
!!!OPR: Missa ex D
!!!OTL: Kyrie
!!!OMV: 002
!!!PDT:
!!!AGN: Sacred; Mass
!!!SMS-siglum: PL-SA
!!!SMS-shelfmark: 177/A V 7
!!!SMS-shelfwork: 001-002 M
!!!SMS-variant:
!!!SMS-altvar:
!!!NIFC-rismid: 1001035883
!!!URL-scan: http://bc.bdsandomierz.pl/dlibra/publication/1512/edition/1480/content
!!!ONB-nifc: UWAGA; części Mszy: Sinfonia, Kyrie, Gloria, Patrem, Sanctus, Benedictus, Agnus, Dona. UWAGA: brak partii cornu primo, cornu secundo
**kern	**dynam	**kern	**dynam	**kern	**dynam	**kern	**text	**kern	**text	**kern	**dynam	**kern	**kern	**kern
*part9	*part9	*part8	*part8	*part7	*part7	*part6	*part6	*part5	*part5	*part4	*part4	*part3	*part2	*part1
*staff9	*	*staff8	*	*staff7	*	*staff6	*staff6	*staff5	*staff5	*staff4	*	*staff3	*staff2	*staff1
*Iempty	*	*Ivioln	*	*Ivioln	*	*Itenor	*	*Ivox	*	*Iempty	*	*Iempty	*Ioboe	*Ioboe
*I"Fundamento:	*	*I"Violino Secundo	*	*I"Violino Primo	*	*I"Tenor	*	*I"Canto	*	*I"Clarino Secundo	*	*I"Clarino Primo	*I"Hobois 2do	*I"Hobois Primo
*I'b	*	*I'vl 2	*	*I'vl 1	*	*I'T	*	*I'S	*	*I'clno 2	*	*I'clno 1	*I'ob 2	*I'ob 1
*clefF4	*	*clefG2	*	*clefG2	*	*clefC4	*	*clefC1	*	*clefG2	*	*clefG2	*clefG2	*clefG2
*ITrd0c0	*	*	*	*	*	*	*	*	*	*ITrd-1c-2	*	*ITrd-1c-2	*	*
*k[f#c#]	*	*k[f#c#]	*	*k[f#c#]	*	*k[f#c#]	*	*k[f#c#]	*	*k[f#c#]	*	*k[f#c#]	*k[f#c#]	*k[f#c#]
*D:	*	*D:	*	*D:	*	*D:	*	*D:	*	*D:	*	*D:	*D:	*D:
*M4/4	*	*M4/4	*	*M4/4	*	*M4/4	*	*M4/4	*	*M4/4	*	*M4/4	*M4/4	*M4/4
*met(c)	*	*met(c)	*	*met(c)	*	*met(c)	*	*met(c)	*	*met(c)	*	*met(c)	*met(c)	*met(c)
=1	=1	=1	=1	=1	=1	=1	=1	=1	=1	=1	=1	=1	=1	=1
!LO:TX:b:t=Kirie	!	!LO:TX:b:t=Kirie	!	!LO:TX:b:t=Kirie	!	!	!	!	!	!LO:TX:b:t=Kirie	!	!LO:TX:b:t=Kirie	!LO:TX:b:t=Kirie	!LO:TX:b:t=Kirie
!LO:TX:a:t=Adagio	!	!LO:TX:a:t=Adagio	!	!LO:TX:a:t=Adagio	!	!LO:TX:a:t=AdaGio&colon;	!	!LO:TX:a:t=Adgio	!	!LO:TX:a:t=Adagio	!	!LO:TX:a:t=Adagio	!LO:TX:a:t=Adagio	!LO:TX:a:t=Adagio
!	!	!	!	!	!	!	!	!LO:SIC:s=Adagio	!	!	!	!	!	!
4.D\	.	4.ff#\	.	4.aa\	.	4.d\	Ki-	4.ff#\	Ki-	4dd\	.	4ff#\	4.dd\	4.aa\
.	.	.	.	.	.	.	.	.	.	4dd\	.	4ff#\	.	.
8D\	.	8ff#\	.	8aa\	.	8d\	-ri-	8ff#\	-ri-	.	.	.	8dd\	8aa\
4D\	.	4ff#\	.	4aa\	.	4d\	-e	4ff#\	-e	4dd\	.	4ff#\	4dd\	4aa\
4r	.	4r	.	4r	.	4r	.	4r	.	4r	.	4r	4r	4r
=2	=2	=2	=2	=2	=2	=2	=2	=2	=2	=2	=2	=2	=2	=2
4D\	.	4ff#\	.	4aa\	.	4A/	ki-	4ff#\	ki-	4dd\	.	4ff#\	4.dd\	4aa\
4D\	.	4ff#\	.	4aa\	.	4A/	-ri-	4ff#\	-ri-	4dd\	.	4ff#\	.	4aa\
.	.	.	.	.	.	.	.	.	.	.	.	.	8dd\	.
4A\	.	4ee\	.	4ccc#\	.	4c#\	-e	4ee\	-e	4a/	.	4ee\	4cc#\	4ccc#\
4r	.	4r	.	4r	.	4r	.	4r	.	4r	.	4r	4r	4r
=3	=3	=3	=3	=3	=3	=3	=3	=3	=3	=3	=3	=3	=3	=3
4F#\	.	4cc#\	.	4ee\	.	4c#\	ki-	4ee\	ki-	1r	.	1r	4cc#\	4ee\
4F#\	.	4cc#\	.	4ee\	.	4c#\	-ri-	4ee\	-ri-	.	.	.	4cc#\	4ee\
4B\	.	4b\	.	4dd\	.	4B\	-e	4dd\	-e	.	.	.	4b\	4dd\
4E\	.	4cc#\	.	4gg\	.	8c#\L	e-	8cc#\L	e-	.	.	.	4cc#\	4gg\
.	.	.	.	.	.	8d\J	.	8b\J	.	.	.	.	.	.
=4	=4	=4	=4	=4	=4	=4	=4	=4	=4	=4	=4	=4	=4	=4
*2\right	*	*2\right	*	*2\right	*	*2\right	*	*2\right	*	*	*	*	*	*2\right
2F#\	.	2a#X/	.	2cc#\	.	2c#\	-lei-	2a#X\	-lei-	4f#/	.	4f#/	2a#X/	2cc#\
.	.	.	.	.	.	.	.	.	.	8f#/L	.	8f#/L	.	.
.	.	.	.	.	.	.	.	.	.	8f#/J	.	8f#/J	.	.
2BB/	.	2b\	.	2dd\	.	2d\	-son	2b\	-son	2f#/	.	2f#/	2b/	2dd\
=5	=5	=5	=5	=5	=5	=5	=5	=5	=5	=5	=5	=5	=5	=5
4B\	.	4dd#X\	.	4ff#\	.	4d#X\	ki-	4ff#\	ki-	4dd\	.	4ff#\	4dd\	4ff#\
4A\	.	4dd#\	.	4ff#\	.	4d#\	-ri-	4ff#\	-ri-	4dd\	.	4ff#\	4dd\	4ff#\
4G\	.	4ee\	.	4gg\	.	2e\	-e	2gg\	-e	4ee\	.	4gg\	4ee\	4gg\
4E\	.	4ee\	.	4gg\	.	.	.	.	.	4ee\	.	4gg\	4ee\	4gg\
=6	=6	=6	=6	=6	=6	=6	=6	=6	=6	=6	=6	=6	=6	=6
*	*	*	*	*	*	*	*ij	*	*ij	*	*	*	*	*
4A\	.	4cc#\	.	4ee\	.	4c#\	ki-	4ee\	ki-	4a/	.	4ee\	4cc#\	4ee\
4G\	.	4cc#\	.	4ee\	.	4c#\	-ri-	4ee\	-ri-	4a/	.	4ee\	4cc#\	4ee\
4F#\	.	4dd\	.	4ff#\	.	2d\	-e	2ff#\	-e	4dd\	.	4ff#\	4dd\	4ff#\
4D\	.	4dd\	.	4ff#\	.	.	.	.	.	4dd\	.	4ff#\	4dd\	4ff#\
*	*	*	*	*	*	*	*Xij	*	*Xij	*	*	*	*	*
!	!	!	!	!	!	!LO:LB:g=original	!	!	!	!	!	!	!	!
=7	=7	=7	=7	=7	=7	=7	=7	=7	=7	=7	=7	=7	=7	=7
4D\	.	4a/	.	4dd\	.	4A\	ki-	4dd\	ki-	4dd\	.	4dd\	4a/	4dd\
4A\	.	4a/	.	4dd\	.	4A\	-ri-	4dd\	-ri-	4dd\	.	4dd\	4a/	4dd\
!	!	!	!	!	!	!	!	!LO:LB:g=original	!	!	!	!	!	!
4B\	.	8b\L	.	8dd\L	.	8B\L	-e	8dd\L	-e	4dd\	.	4dd\	8b\L	8dd\L
.	.	8cc#\J	.	8ee\J	.	8c#\J	.	8ee\J	.	.	.	.	8cc#\J	8ee\J
8F#\L	.	4dd\	.	4ff#\	.	4d\	e-	4ff#\	e-	4dd\	.	4ff#\	4dd\	4ff#\
8G\J	.	.	.	.	.	.	.	.	.	.	.	.	.	.
=8	=8	=8	=8	=8	=8	=8	=8	=8	=8	=8	=8	=8	=8	=8
*	*	*	*	*	*	*	*	*	*	*2\right	*	*2\right	*2\right	*
4A\	.	2cc#\	.	2ee\	.	2c#\	-lei-	2ee\	-lei-	4a/	.	4ee\	2cc#\	2ee\
4AA/	.	.	.	.	.	.	.	.	.	4a/	.	4ee\	.	.
2D\	.	2dd\	.	2ff#\	.	2d\	-son	2ff#\	-son	2dd\	.	2ff#\	2dd\	2ff#\
!	!	!	!	!LO:LB:g=original	!	!	!	!	!	!	!	!	!	!
=9	=9	=9	=9	=9	=9	=9	=9	=9	=9	=9	=9	=9	=9	=9
4D\	.	4ff#\	.	4aa\	.	4d\	ki-	4ff#\	ki-	4dd\	.	4ff#\	4ff#\	4aa\
8F#\L	.	4ff#\	.	4ddd\	.	4d\	-ri-	4ff#\	-ri-	4dd\	.	4ff#\	4ff#\	4ddd\
8G\J	.	.	.	.	.	.	.	.	.	.	.	.	.	.
4A\	.	4ee\	.	4ccc#\	.	4c#\	-e	4ee\	-e	4a/	.	4ee\	4ee\	4ccc#\
4AA/	.	4ee\	.	4ccc#\	.	4c#\	e-	4ee\	e-	4a/	.	4ee\	4ee\	4ccc#\
=10	=10	=10	=10	=10	=10	=10	=10	=10	=10	=10	=10	=10	=10	=10
4D\	.	4ff#\	.	4ddd\	.	2d\	-lei-	2ff#\	-lei-	4dd\	.	4ff#\	4ff#\	4aa\
8F#\L	.	4ff#\	.	4ddd\	.	.	.	.	.	4dd\	.	4ff#\	4ff#\	4ddd\
8G\J	.	.	.	.	.	.	.	.	.	.	.	.	.	.
4A\	.	4ee\	.	4ccc#\	.	2c#\	-son	2ee\	-son	4a/	.	4ee\	2ee\	2ccc#\
4AA/	.	4ee\	.	4ccc#\	.	.	.	.	.	4a/	.	4ee\	.	.
=11	=11	=11	=11	=11	=11	=11	=11	=11	=11	=11	=11	=11	=11	=11
4F#\	.	4a/	.	4ddd\	.	4A\	ki-	4dd\	ki-	2r	.	2r	4a/	4ddd\
4D\	.	4f#/	.	4dd\	.	4F#/	-ri-	4dd\	-ri-	.	.	.	4f#/	4dd\
4G\	.	8b\L	.	8dd\L	.	8B\L	-e	8dd\L	-e	4r	.	4r	8b\L	8dd\L
.	.	8cc#\J	.	8ee\J	.	8c#\J	.	8ee\J	.	.	.	.	8cc#\J	8ee\J
4D\	.	4dd\	.	4ff#\	.	4d\	e	4ff#\	e-	4dd\	.	4ff#\	4dd\	4ff#\
=12	=12	=12	=12	=12	=12	=12	=12	=12	=12	=12	=12	=12	=12	=12
!	!	!	!	!	!	!	!	!	!LO:SIC:s=lei	!	!	!	!	!
4A\	.	2cc#\	.	2ee\	.	2c#\	-lei-	2ee\	-lie-	2a/	.	2ee\	2cc#\	2ee\
4AA/	.	.	.	.	.	.	.	.	.	.	.	.	.	.
!LO:N:vis=4.	!	!	!	!	!	!	!	!	!	!	!	!	!	!
4D\	.	4dd\	.	4ff#\	.	4d\	-son	4ff#\	-son	4dd\	.	4ff#\	4dd\	4ff#\
8d\L	.	8ff#\L	.	4dd\	.	8f#\L	e-	4dd\	e-	4r	.	4r	8ff#\L	4dd\
8c#\J	.	8ee\J	.	.	.	8d\J	.	.	.	.	.	.	8ee\J	.
!LO:LB:g=original	!	!	!	!	!	!	!	!	!	!	!	!	!	!
=13	=13	=13	=13	=13	=13	=13	=13	=13	=13	=13	=13	=13	=13	=13
8B\L	.	8dd\L	.	4ddd\	.	8d\L	-lei-	2dd\	-lei-	1r	.	1r	8dd\L	4ddd\
8A\	.	8cc#\	.	.	.	8c#\	.	.	.	.	.	.	8cc#\	.
8G\	.	8b\	.	4dd\	.	8B\	.	.	.	.	.	.	8b\	4dd\
8F#\J	.	8a\J	.	.	.	8A\J	.	.	.	.	.	.	8a\J	.
4G\	.	4b\	.	4dd\	.	4B\	.	4dd\	.	.	.	.	4b\	4dd\
4A\	.	4cc#\	.	4ee\	.	4c#\	.	4ee\	.	.	.	.	4cc#\	4ee\
!	!	!LO:LB:g=original	!	!	!	!	!	!	!	!	!	!LO:LB:g=original	!LO:LB:g=original	!
=14	=14	=14	=14	=14	=14	=14	=14	=14	=14	=14	=14	=14	=14	=14
4B\	.	4dd\	.	4ff#\	.	4d\	-son	4ff#\	-son	4dd\	.	4ff#\	4dd\	4ff#\
8F#\L	.	4dd\	.	4ff#\	.	4d\	e-	4ff#\	e-	4dd\	.	4ff#\	4dd\	4ff#\
8G\J	.	.	.	.	.	.	.	.	.	.	.	.	.	.
!	!	!	!	!	!	!	!	!	!	!LO:LB:g=original	!	!	!	!
4A\	.	2cc#\	.	2ee\	.	2c#\	-lei-	2ee\	-lei-	2a/	.	2ee\	2cc#\	2ee\
4AA/	.	.	.	.	.	.	.	.	.	.	.	.	.	.
=15	=15	=15	=15	=15	=15	=15	=15	=15	=15	=15	=15	=15	=15	=15
2D\	.	2dd\	.	2ff#\	.	2d\	-son	2ff#\	-son	2dd\	.	2ff#\	2dd;\	2ff#\
2r	.	2r	.	2r	.	2r	.	2r	.	2r	.	2r	2r	2r
!	!	!	!	!LO:LB:g=original	!	!LO:LB:g=original	!	!LO:LB:g=original	!	!	!	!	!LO:LB:g=original	!LO:LB:g=original
=16||	=16||	=16||	=16||	=16||	=16||	=16||	=16||	=16||	=16||	=16||	=16||	=16||	=16||	=16||
*M3/8	*	*M3/8	*	*M3/8	*	*M3/8	*	*M3/8	*	*M3/8	*	*M3/8	*M3/8	*M3/8
!LO:TX:a:t=Moderato	!	!LO:TX:a:t=moderato	!	!LO:TX:a:t=Moderato	!	!	!	!	!	!	!	!LO:TX:t=P:problem:w źródle "Christe Tacet" zapisane na pięciolinii, a "Kirie Tacet" pod pięciolinią	!	!
!LO:TX:b:t=Christe	!	!LO:TX:b:t=Christe	!	!LO:TX:b:t=Christe	!	!	!	!LO:TX:a:t=Tacet \nChriste	!	!LO:TX:a:t=Christe Tacet//Kirie Tacet//	!	!LO:TX:a:t=Christe Tacet \nKirie Tacet	!	!
!	!	!	!	!	!	!	!	!	!	!LO:TX:t=P:problem:w źródle "Christe Tacet//Kirie Tacet//" zapisane na pięciolinii	!	!	!	!
!	!	!	!	!	!	!LO:N:vis=00	!	!	!	!	!	!	!	!
!	!	!	!	!	!	!	!	!LO:TX:t=P:problem:w źródle "Tacet Christe" zapisane na pięciolinii	!	!	!	!	!	!
4BB/	.	16b\LL	.	16b\LL	.	1.r	.	4.ryy	.	4.ryy	.	4.ryy	4.ryy	4.ryy
.	.	16cc#\	.	16cc#\JJ	.	.	.	.	.	.	.	.	.	.
.	.	8dd\	.	8dd\L	.	.	.	.	.	.	.	.	.	.
8r	.	8ee\JJ	.	8ee\J	.	.	.	.	.	.	.	.	.	.
=17	=17	=17	=17	=17	=17	=17	=17	=17	=17	=17	=17	=17	=17	=17
16BB/LL	.	16ff#\LL	.	16ff#\LL	.	.	.	4.ryy	.	4.ryy	.	4.ryy	4.ryy	4.ryy
16C#/JJ	.	16aa#X\JJ	.	16aa#X\JJ	.	.	.	.	.	.	.	.	.	.
.	.	.	.	8qqaa#/	.	.	.	.	.	.	.	.	.	.
8D\L	.	4bb\	.	4bb\	.	.	.	.	.	.	.	.	.	.
8BB\J	.	.	.	.	.	.	.	.	.	.	.	.	.	.
=18	=18	=18	=18	=18	=18	=18	=18	=18	=18	=18	=18	=18	=18	=18
!LO:TX:a:t=P:problem:mixed beam	!	!	!	!	!	!	!	!	!	!	!	!	!	!
8E\L	.	8gg\L	.	8gg\L	.	.	.	4.ryy	.	4.ryy	.	4.ryy	4.ryy	4.ryy
8F#\	.	8ff#\	.	8ff#\	.	.	.	.	.	.	.	.	.	.
8FF#/J	.	8ee\J	.	8ee\J	.	.	.	.	.	.	.	.	.	.
=19	=19	=19	=19	=19	=19	=19	=19	=19	=19	=19	=19	=19	=19	=19
8BB/L	.	16dd\LL	.	16dd\LL	.	.	.	4.ryy	.	4.ryy	.	4.ryy	4.ryy	4.ryy
.	.	16cc#\JJ	.	16cc#\JJ	.	.	.	.	.	.	.	.	.	.
8D/	.	4b\	.	4b\	.	.	.	.	.	.	.	.	.	.
8BB/J	.	.	.	.	.	.	.	.	.	.	.	.	.	.
=20	=20	=20	=20	=20	=20	=20	=20	=20	=20	=20	=20	=20	=20	=20
!	!	!	!	!	!	!LO:N:vis=00	!	!	!	!	!	!	!	!
8F#\L	.	16cc#\LL	.	16cc#\LL	.	1.r	.	4.ryy	.	4.ryy	.	4.ryy	4.ryy	4.ryy
.	.	16dd\JJ	.	16dd\JJ	.	.	.	.	.	.	.	.	.	.
8A#X\	.	4ee\	.	4ee\	.	.	.	.	.	.	.	.	.	.
8F#\J	.	.	.	.	.	.	.	.	.	.	.	.	.	.
=21	=21	=21	=21	=21	=21	=21	=21	=21	=21	=21	=21	=21	=21	=21
8B\L	.	16dd\LL	.	16dd\LL	.	.	.	4.ryy	.	4.ryy	.	4.ryy	4.ryy	4.ryy
.	.	16cc#\J	.	16cc#\JJ	.	.	.	.	.	.	.	.	.	.
8D\	.	8b\J	.	8b\	.	.	.	.	.	.	.	.	.	.
8F#\J	.	8r	.	8r	.	.	.	.	.	.	.	.	.	.
=22	=22	=22	=22	=22	=22	=22	=22	=22	=22	=22	=22	=22	=22	=22
4BB/	.	16b\LL	.	16b\LL	.	.	.	4.ryy	.	4.ryy	.	4.ryy	4.ryy	4.ryy
.	.	16cc#\	.	16cc#\	.	.	.	.	.	.	.	.	.	.
.	.	16dd#X\	.	16dd\	.	.	.	.	.	.	.	.	.	.
.	.	16ee\	.	16ee\	.	.	.	.	.	.	.	.	.	.
8r	.	16ff#\	.	16ff#\	.	.	.	.	.	.	.	.	.	.
.	.	16gg\JJ	.	16gg\JJ	.	.	.	.	.	.	.	.	.	.
=23	=23	=23	=23	=23	=23	=23	=23	=23	=23	=23	=23	=23	=23	=23
!LO:TX:a:t=P:problem:mixed beam	!	!	!	!	!	!	!	!	!	!	!	!	!	!
8BB/L	.	4.aa\	.	4.aa\	.	.	.	4.ryy	.	4.ryy	.	4.ryy	4.ryy	4.ryy
8F#\	.	.	.	.	.	.	.	.	.	.	.	.	.	.
8E\J	.	.	.	.	.	.	.	.	.	.	.	.	.	.
=24	=24	=24	=24	=24	=24	=24	=24	=24	=24	=24	=24	=24	=24	=24
8D#X\L	.	8cccn\L	.	8cccn\L	.	1.r	.	4.ryy	.	4.ryy	.	4.ryy	4.ryy	4.ryy
8BB\	.	8bb\	.	8bb\	.	.	.	.	.	.	.	.	.	.
8D#\J	.	8aa\J	.	8aa\J	.	.	.	.	.	.	.	.	.	.
=25	=25	=25	=25	=25	=25	=25	=25	=25	=25	=25	=25	=25	=25	=25
8E\L	.	16gg\LL	.	16gg\LL	.	.	.	4.ryy	.	4.ryy	.	4.ryy	4.ryy	4.ryy
.	.	16ff#\J	.	16ff#\J	.	.	.	.	.	.	.	.	.	.
8G\	.	8ee\J	.	8ee\J	.	.	.	.	.	.	.	.	.	.
8E\J	.	8r	.	8r	.	.	.	.	.	.	.	.	.	.
=26	=26	=26	=26	=26	=26	=26	=26	=26	=26	=26	=26	=26	=26	=26
4AA/	.	16a\LL	.	16a\LL	.	.	.	4.ryy	.	4.ryy	.	4.ryy	4.ryy	4.ryy
.	.	16b\	.	16b\	.	.	.	.	.	.	.	.	.	.
.	.	16cc#\	.	16cc#\	.	.	.	.	.	.	.	.	.	.
.	.	16dd\	.	16dd\	.	.	.	.	.	.	.	.	.	.
8r	.	16ee\	.	16ee\	.	.	.	.	.	.	.	.	.	.
.	.	16ff#\JJ	.	16ff#\JJ	.	.	.	.	.	.	.	.	.	.
=27	=27	=27	=27	=27	=27	=27	=27	=27	=27	=27	=27	=27	=27	=27
!LO:TX:a:t=P:problem:mixed beam	!	!	!	!	!	!	!	!	!	!	!	!	!	!
!	!	!	!	!	!	!LO:N:vis=00	!	!	!	!	!	!	!	!
8AA/L	.	4.gg\	.	4.gg\	.	.	.	4.ryy	.	4.ryy	.	4.ryy	4.ryy	4.ryy
8E\	.	.	.	.	.	.	.	.	.	.	.	.	.	.
8D\J	.	.	.	.	.	.	.	.	.	.	.	.	.	.
=28	=28	=28	=28	=28	=28	=28	=28	=28	=28	=28	=28	=28	=28	=28
!	!	!	!	!	!	!LO:N:vis=00	!	!	!	!	!	!	!	!
8C#/L	.	8bb\L	.	8bb\L	.	1.r	.	4.ryy	.	4.ryy	.	4.ryy	4.ryy	4.ryy
8AA/	.	8aa\	.	8aa\	.	.	.	.	.	.	.	.	.	.
8C#/J	.	8gg\J	.	8gg\J	.	.	.	.	.	.	.	.	.	.
!LO:LB:g=original	!	!	!	!	!	!	!	!	!	!	!	!	!	!
=29	=29	=29	=29	=29	=29	=29	=29	=29	=29	=29	=29	=29	=29	=29
8D\L	.	16ff#\LL	.	16ff#\LL	.	.	.	4.ryy	.	4.ryy	.	4.ryy	4.ryy	4.ryy
.	.	16ee\J	.	16ee\J	.	.	.	.	.	.	.	.	.	.
8F#\	.	8dd\	.	8dd\	.	.	.	.	.	.	.	.	.	.
8D\J	.	8ff#\J	.	8ff#\J	.	.	.	.	.	.	.	.	.	.
!	!	!LO:LB:g=original	!	!	!	!	!	!	!	!	!	!	!	!
=30	=30	=30	=30	=30	=30	=30	=30	=30	=30	=30	=30	=30	=30	=30
!LO:TX:a:t=P:problem:mixed beam	!	!	!	!	!	!	!	!	!	!	!	!	!	!
8BB/L	.	8ff#\L	.	8ff#\L	.	.	.	4.ryy	.	4.ryy	.	4.ryy	4.ryy	4.ryy
8G\	.	16ee\L	.	16ee\L	.	.	.	.	.	.	.	.	.	.
.	.	16dd\	.	16dd\	.	.	.	.	.	.	.	.	.	.
8E\J	.	16cc#\	.	16cc#\	.	.	.	.	.	.	.	.	.	.
.	.	16b\JJ	.	16b\JJ	.	.	.	.	.	.	.	.	.	.
=31	=31	=31	=31	=31	=31	=31	=31	=31	=31	=31	=31	=31	=31	=31
8F#\L	.	16a#X/LL	.	16a#X/LL	.	.	.	4.ryy	.	4.ryy	.	4.ryy	4.ryy	4.ryy
.	.	16g#X/J	.	16g#X/J	.	.	.	.	.	.	.	.	.	.
16F#\L	.	8f#/J	.	8f#/J	.	.	.	.	.	.	.	.	.	.
16E\	.	.	.	.	.	.	.	.	.	.	.	.	.	.
16D\	.	8r	.	8r	.	.	.	.	.	.	.	.	.	.
16C#\JJ	.	.	.	.	.	.	.	.	.	.	.	.	.	.
!	!	!	!	!LO:LB:g=original	!	!	!	!	!	!	!	!	!	!
=32	=32	=32	=32	=32	=32	=32	=32	=32	=32	=32	=32	=32	=32	=32
!	!	!LO:TX:a:t=P:problem:mixed beam	!	!LO:TX:a:t=P:problem:mixed beam	!	!	!	!	!	!	!	!	!	!
!	!	!	!	!	!	!LO:N:vis=00	!	!	!	!	!	!	!	!
8BB/L	.	16b/LL	.	16b/LL	.	1.r	.	4.ryy	.	4.ryy	.	4.ryy	4.ryy	4.ryy
.	.	16aa#\JJ	.	16aa#X\JJ	.	.	.	.	.	.	.	.	.	.
!	!	!	!	!LO:TX:a:t=bis	!	!	!	!	!	!	!	!	!	!
8D/	.	16bb\LL	.	16bb\LL	.	.	.	.	.	.	.	.	.	.
.	.	16aa#\	.	16aa#\	.	.	.	.	.	.	.	.	.	.
8BB/J	.	16bb\	.	16bb\	.	.	.	.	.	.	.	.	.	.
.	.	16aa#\JJ	.	16aa#\JJ	.	.	.	.	.	.	.	.	.	.
=33	=33	=33	=33	=33	=33	=33	=33	=33	=33	=33	=33	=33	=33	=33
!	!	!LO:TX:a:t=P:problem:mixed beam	!	!LO:TX:a:t=P:problem:mixed beam	!	!	!	!	!	!	!	!	!	!
16D\LL	.	16bb\LL	.	16bb\LL	.	.	.	4.ryy	.	4.ryy	.	4.ryy	4.ryy	4.ryy
16E\JJ	.	16b/JJ	.	16b/JJ	.	.	.	.	.	.	.	.	.	.
!LO:TX:a:t=P:problem:mixed beam	!	!	!	!	!	!	!	!	!	!	!	!	!	!
8F#\L	.	8dd\L	.	8dd\L	.	.	.	.	.	.	.	.	.	.
8FF#/J	.	8cc#\J	.	8cc#\J	.	.	.	.	.	.	.	.	.	.
=34	=34	=34	=34	=34	=34	=34	=34	=34	=34	=34	=34	=34	=34	=34
!	!	!LO:TX:a:t=P:problem:mixed beam	!	!LO:TX:a:t=P:problem:mixed beam	!	!	!	!	!	!	!	!	!	!
!LO:TX:t=P:problem:w źródle takty 34-35 zapisane jako repetycja taktów 32-33	!	!	!	!LO:TX:t=P:problem:w źródle takty 34-35 zapisane jako repetycja taktów 32-33	!	!	!	!	!	!	!	!	!	!
8BB/L	.	16b/LL	.	16b/LL	.	.	.	4.ryy	.	4.ryy	.	4.ryy	4.ryy	4.ryy
.	.	16aa#\JJ	.	16aa#X\JJ	.	.	.	.	.	.	.	.	.	.
8D/	.	16bb\LL	.	16bb\LL	.	.	.	.	.	.	.	.	.	.
.	.	16aa#\	.	16aa#\	.	.	.	.	.	.	.	.	.	.
8BB/J	.	16bb\	.	16bb\	.	.	.	.	.	.	.	.	.	.
.	.	16aa#\JJ	.	16aa#\JJ	.	.	.	.	.	.	.	.	.	.
=35	=35	=35	=35	=35	=35	=35	=35	=35	=35	=35	=35	=35	=35	=35
!	!	!LO:TX:a:t=P:problem:mixed beam	!	!LO:TX:a:t=P:problem:mixed beam	!	!	!	!	!	!	!	!	!	!
16D\LL	.	16bb\LL	.	16bb\LL	.	.	.	4.ryy	.	4.ryy	.	4.ryy	4.ryy	4.ryy
16E\JJ	.	16b/JJ	.	16b/JJ	.	.	.	.	.	.	.	.	.	.
!LO:TX:a:t=P:problem:mixed beam	!	!	!	!	!	!	!	!	!	!	!	!	!	!
8F#/L	.	8dd\L	.	8dd\L	.	.	.	.	.	.	.	.	.	.
8FF#\J	.	8cc#\J	.	8cc#\J	.	.	.	.	.	.	.	.	.	.
=36	=36	=36	=36	=36	=36	=36	=36	=36	=36	=36	=36	=36	=36	=36
!LO:TX:a:t=P:problem:mixed beam	!	!	!	!	!	!	!	!	!	!	!	!	!	!
!	!	!	!	!	!	!LO:N:vis=0	!	!	!	!	!	!	!	!
8BB/L	.	16b\LL	.	16b\LL	.	2.r	.	4.ryy	.	4.ryy	.	4.ryy	4.ryy	4.ryy
.	.	16dd\JJ	.	16dd\JJ	.	.	.	.	.	.	.	.	.	.
8E#X\	.	8dd\L	.	8ddT\L	.	.	.	.	.	.	.	.	.	.
8E#\J	.	16cc#\L	.	16cc#\L	.	.	.	.	.	.	.	.	.	.
.	.	16b\JJ	.	16b\JJ	.	.	.	.	.	.	.	.	.	.
=37	=37	=37	=37	=37	=37	=37	=37	=37	=37	=37	=37	=37	=37	=37
8F#\L	.	16a#X/LL	.	16a#X/LL	.	.	.	4.ryy	.	4.ryy	.	4.ryy	4.ryy	4.ryy
.	.	16b/JJ	.	16b/JJ	.	.	.	.	.	.	.	.	.	.
8F#\	.	8d/L	.	8d/L	.	.	.	.	.	.	.	.	.	.
8F#\J	.	8c#/J	.	8c#/J	.	.	.	.	.	.	.	.	.	.
=38	=38	=38	=38	=38	=38	=38	=38	=38	=38	=38	=38	=38	=38	=38
4BB/	.	4B;/	.	4B;/	.	4.r	.	4.ryy	.	4.ryy	.	4.ryy	4.ryy	4.ryy
8r	.	8r	.	8r	.	.	.	.	.	.	.	.	.	.
=39	=39	=39	=39	=39	=39	=39	=39	=39	=39	=39	=39	=39	=39	=39
!	!	!	!LO:DY:t=pia	!	!	!	!	!	!	!	!	!	!	!
!	!	!	!LO:DY:a	!	!LO:DY:a	!	!	!	!	!	!	!	!	!
4BB/	.	4dd\	p	16b\LL	p	16B\LL	Chri-	4.ryy	.	4.ryy	.	4.ryy	4.ryy	4.ryy
.	.	.	.	16cc#\JJ	.	16c#\JJ	.	.	.	.	.	.	.	.
.	.	.	.	8dd\L	.	8d\	.	.	.	.	.	.	.	.
8r	.	8r	.	8ee\J	.	8e\	-ste	.	.	.	.	.	.	.
=40	=40	=40	=40	=40	=40	=40	=40	=40	=40	=40	=40	=40	=40	=40
16BB/LL	.	16dd\LL	.	16ff#\LL	.	16f#\LL	chri-	4.ryy	.	4.ryy	.	4.ryy	4.ryy	4.ryy
16C#/JJ	.	16ee\JJ	.	16gg#X\JJ	.	16A#X\JJ	.	.	.	.	.	.	.	.
.	.	.	.	8qqaa/	.	.	.	.	.	.	.	.	.	.
8D\L	.	8ff#\L	.	4bb\	.	4B\	-ste	.	.	.	.	.	.	.
8BB\J	.	8dd\J	.	.	.	.	.	.	.	.	.	.	.	.
=41	=41	=41	=41	=41	=41	=41	=41	=41	=41	=41	=41	=41	=41	=41
.	.	.	.	.	.	16qqe/LL	.	.	.	.	.	.	.	.
!LO:TX:a:t=P:problem:mixed beam	!	!	!	!	!	!	!	!	!	!	!	!	!	!
.	.	.	.	.	.	16qqf#/JJ	.	.	.	.	.	.	.	.
8E\L	.	8ee\L	.	8gg\L	.	8g\	e-	4.ryy	.	4.ryy	.	4.ryy	4.ryy	4.ryy
8F#\	.	8dd\	.	8ff#\	.	8f#\L	-lei-	.	.	.	.	.	.	.
8FF#/J	.	8cc#\J	.	8ee\J	.	8e\J	.	.	.	.	.	.	.	.
=42	=42	=42	=42	=42	=42	=42	=42	=42	=42	=42	=42	=42	=42	=42
8BB/L	.	16b\LL	.	16dd\LL	.	16d\LL	.	4.ryy	.	4.ryy	.	4.ryy	4.ryy	4.ryy
.	.	16a#X\JJ	.	16cc#\JJ	.	16c#\JJ	.	.	.	.	.	.	.	.
8D/	.	4b\	.	4b\	.	4B\	-son	.	.	.	.	.	.	.
8BB/J	.	.	.	.	.	.	.	.	.	.	.	.	.	.
=43	=43	=43	=43	=43	=43	=43	=43	=43	=43	=43	=43	=43	=43	=43
8F#\L	.	16a\LL	.	16cc#\LL	.	16c#\LL	e-	4.ryy	.	4.ryy	.	4.ryy	4.ryy	4.ryy
.	.	16b\JJ	.	16dd\JJ	.	16d\JJ	.	.	.	.	.	.	.	.
8A#X\	.	4cc#\	.	4ee\	.	4e\	-lei-	.	.	.	.	.	.	.
8F#\J	.	.	.	.	.	.	.	.	.	.	.	.	.	.
=44	=44	=44	=44	=44	=44	=44	=44	=44	=44	=44	=44	=44	=44	=44
8B\L	.	16b\LL	.	16dd\LL	.	16d\LL	.	4.ryy	.	4.ryy	.	4.ryy	4.ryy	4.ryy
.	.	16a\J	.	16cc#\J	.	16c#\JJ	.	.	.	.	.	.	.	.
8D\	.	8b\J	.	8b\J	.	4B\	-son	.	.	.	.	.	.	.
8F#\J	.	8r	.	8r	.	.	.	.	.	.	.	.	.	.
=45	=45	=45	=45	=45	=45	=45	=45	=45	=45	=45	=45	=45	=45	=45
4BB/	.	4dd#X\	.	16b\LL	.	16B\LL	Chri-	4.ryy	.	4.ryy	.	4.ryy	4.ryy	4.ryy
.	.	.	.	16cc#\	.	16c#\JJ	.	.	.	.	.	.	.	.
.	.	.	.	16dd#X\	.	16d#X\LL	-ste	.	.	.	.	.	.	.
.	.	.	.	16ee\	.	16e\JJ	.	.	.	.	.	.	.	.
8r	.	8r	.	16ff#\	.	16f#\LL	e-	.	.	.	.	.	.	.
.	.	.	.	16gg\JJ	.	16g\JJ	.	.	.	.	.	.	.	.
=46	=46	=46	=46	=46	=46	=46	=46	=46	=46	=46	=46	=46	=46	=46
!LO:TX:a:t=P:problem:mixed beam	!	!LO:TX:a:t=P:problem:mixed beam	!	!	!	!	!	!	!	!	!	!	!	!
8BB/L	.	8dd\L	.	4.aa\	.	4.a\	-lei-	4.ryy	.	4.ryy	.	4.ryy	4.ryy	4.ryy
8F#\	.	8a/	.	.	.	.	.	.	.	.	.	.	.	.
8E\J	.	8g/J	.	.	.	.	.	.	.	.	.	.	.	.
!	!	!LO:LB:g=original	!	!	!	!	!	!	!	!	!	!	!	!
=47	=47	=47	=47	=47	=47	=47	=47	=47	=47	=47	=47	=47	=47	=47
!	!	!LO:TX:a:t=P:problem:mixed beam	!	!	!	!	!	!	!	!	!	!	!	!
8D\L	.	16f#/LL	.	8cccn\L	.	8cn\L	.	4.ryy	.	4.ryy	.	4.ryy	4.ryy	4.ryy
.	.	16aa\J	.	.	.	.	.	.	.	.	.	.	.	.
8BB#X\	.	8gg\	.	8bb\	.	8B\	.	.	.	.	.	.	.	.
8D\J	.	8ff#\J	.	8aa\J	.	8a\J	.	.	.	.	.	.	.	.
=48	=48	=48	=48	=48	=48	=48	=48	=48	=48	=48	=48	=48	=48	=48
8E\L	.	16ee\LL	.	16gg\LL	.	16g\LL	.	4.ryy	.	4.ryy	.	4.ryy	4.ryy	4.ryy
.	.	16dd#X\J	.	16ff#\J	.	16f#\JJ	.	.	.	.	.	.	.	.
8G\	.	8ee\J	.	8ee\J	.	8e\	-son	.	.	.	.	.	.	.
8E\J	.	8r	.	8r	.	8r	.	.	.	.	.	.	.	.
!	!	!	!	!LO:LB:g=original	!	!LO:LB:g=original	!	!	!	!	!	!	!	!
=49	=49	=49	=49	=49	=49	=49	=49	=49	=49	=49	=49	=49	=49	=49
4AA/	.	4cc#\	.	16a\LL	.	16A\LL	Chri-	4.ryy	.	4.ryy	.	4.ryy	4.ryy	4.ryy
.	.	.	.	16b\	.	16B\JJ	.	.	.	.	.	.	.	.
.	.	.	.	16cc#\	.	16c#\LL	-ste	.	.	.	.	.	.	.
.	.	.	.	16dd\	.	16d\JJ	.	.	.	.	.	.	.	.
8r	.	8r	.	16ee\	.	16e\LL	e-	.	.	.	.	.	.	.
.	.	.	.	16ff#\JJ	.	16f#\JJ	.	.	.	.	.	.	.	.
=50	=50	=50	=50	=50	=50	=50	=50	=50	=50	=50	=50	=50	=50	=50
!LO:TX:a:t=P:problem:mixed beam	!	!	!	!	!	!	!	!	!	!	!	!	!	!
8AA/L	.	8cc#\L	.	4.gg\	.	4.g\	-lei-	4.ryy	.	4.ryy	.	4.ryy	4.ryy	4.ryy
8E\	.	8g\	.	.	.	.	.	.	.	.	.	.	.	.
8D\J	.	8f#\J	.	.	.	.	.	.	.	.	.	.	.	.
!LO:LB:g=original	!	!	!	!	!	!	!	!	!	!	!	!	!	!
=51	=51	=51	=51	=51	=51	=51	=51	=51	=51	=51	=51	=51	=51	=51
!	!	!LO:TX:a:t=P:problem:mixed beam	!	!	!	!	!	!	!	!	!	!	!	!
8C#/L	.	16e/LL	.	8bb\L	.	8B\L	.	4.ryy	.	4.ryy	.	4.ryy	4.ryy	4.ryy
.	.	16gg\J	.	.	.	.	.	.	.	.	.	.	.	.
8AA/	.	8ff#\	.	8aa\	.	8A\	.	.	.	.	.	.	.	.
8C#/J	.	8ee\J	.	8gg\J	.	8g\J	.	.	.	.	.	.	.	.
=52	=52	=52	=52	=52	=52	=52	=52	=52	=52	=52	=52	=52	=52	=52
8D\L	.	16dd\LL	.	16ff#\LL	.	16f#\LL	.	4.ryy	.	4.ryy	.	4.ryy	4.ryy	4.ryy
.	.	16cc#\JJ	.	16ee\JJ	.	16e\JJ	.	.	.	.	.	.	.	.
8F#\	.	8dd\L	.	8dd\L	.	8d\	-son	.	.	.	.	.	.	.
8D\J	.	8ff#\J	.	8aa\J	.	8A/	e	.	.	.	.	.	.	.
=53	=53	=53	=53	=53	=53	=53	=53	=53	=53	=53	=53	=53	=53	=53
8G\L	.	8dd\L	.	8bb\L	.	16B\LL	lei-	4.ryy	.	4.ryy	.	4.ryy	4.ryy	4.ryy
.	.	.	.	.	.	16d\	.	.	.	.	.	.	.	.
8G\	.	8dd\	.	8bb\	.	16e\	.	.	.	.	.	.	.	.
.	.	.	.	.	.	16f#\	.	.	.	.	.	.	.	.
8G\J	.	8dd\J	.	8bb\J	.	16g\	.	.	.	.	.	.	.	.
.	.	.	.	.	.	16B\JJ	.	.	.	.	.	.	.	.
=54	=54	=54	=54	=54	=54	=54	=54	=54	=54	=54	=54	=54	=54	=54
8D\L	.	8ff#\L	.	8aa\L	.	16A\LL	.	4.ryy	.	4.ryy	.	4.ryy	4.ryy	4.ryy
.	.	.	.	.	.	16c#\	.	.	.	.	.	.	.	.
8D\	.	8ff#\	.	8aa\	.	16d\	.	.	.	.	.	.	.	.
.	.	.	.	.	.	16e\	.	.	.	.	.	.	.	.
8D\J	.	8ff#\J	.	8aa\J	.	16f#\	.	.	.	.	.	.	.	.
.	.	.	.	.	.	16A\JJ	.	.	.	.	.	.	.	.
=55	=55	=55	=55	=55	=55	=55	=55	=55	=55	=55	=55	=55	=55	=55
8AA/L	.	8ee\L	.	8gg\L	.	16G\LL	.	4.ryy	.	4.ryy	.	4.ryy	4.ryy	4.ryy
.	.	.	.	.	.	16e\JJ	.	.	.	.	.	.	.	.
8AA/	.	8ee\	.	8gg\	.	16e\LL	.	.	.	.	.	.	.	.
.	.	.	.	.	.	16c#\JJ	.	.	.	.	.	.	.	.
8AA/J	.	8ee\J	.	8gg\J	.	16A\LL	.	.	.	.	.	.	.	.
.	.	.	.	.	.	16G\JJ	.	.	.	.	.	.	.	.
=56	=56	=56	=56	=56	=56	=56	=56	=56	=56	=56	=56	=56	=56	=56
8D\L	.	16dd\LL	.	16ff#\LL	.	16F#/	-son	4.ryy	.	4.ryy	.	4.ryy	4.ryy	4.ryy
.	.	16ccc#\	.	16ccc#\	.	16c#\	e	.	.	.	.	.	.	.
.	.	.	.	.	.	8qqe/	.	.	.	.	.	.	.	.
8F#\	.	16ddd\	.	16ddd\	.	16d\LL	lei-	.	.	.	.	.	.	.
.	.	16ccc#\	.	16ccc#\	.	16c#\JJ	.	.	.	.	.	.	.	.
.	.	.	.	.	.	8qqe/	.	.	.	.	.	.	.	.
8D\J	.	16ddd\	.	16ddd\	.	16d\LL	.	.	.	.	.	.	.	.
.	.	16ccc#\JJ	.	16ccc#\JJ	.	16c#\JJ	.	.	.	.	.	.	.	.
=57	=57	=57	=57	=57	=57	=57	=57	=57	=57	=57	=57	=57	=57	=57
16F#\LL	.	16ddd\LL	.	16ddd\LL	.	16d\LL	.	4.ryy	.	4.ryy	.	4.ryy	4.ryy	4.ryy
16G\JJ	.	16dd\JJ	.	16dd\JJ	.	16A\JJ	.	.	.	.	.	.	.	.
!LO:TX:a:t=P:problem:mixed beam	!	!	!	!	!	!	!	!	!	!	!	!	!	!
8A\L	.	8ff#\L	.	8ff#\L	.	8f#\L	.	.	.	.	.	.	.	.
8AA/J	.	8ee\J	.	8ee\J	.	8e\J	.	.	.	.	.	.	.	.
=58	=58	=58	=58	=58	=58	=58	=58	=58	=58	=58	=58	=58	=58	=58
8D\L	.	16dd\LL	.	16ff#\LL	.	8d\	-son	4.ryy	.	4.ryy	.	4.ryy	4.ryy	4.ryy
.	.	16ccc#\	.	16ccc#\	.	.	.	.	.	.	.	.	.	.
.	.	.	.	.	.	8qqe/	.	.	.	.	.	.	.	.
8F#\	.	16ddd\	.	16ddd\	.	16d\LL	e-	.	.	.	.	.	.	.
.	.	16ccc#\	.	16ccc#\	.	16c#\	.	.	.	.	.	.	.	.
8D\J	.	16ddd\	.	16ddd\	.	16d\	.	.	.	.	.	.	.	.
.	.	16ccc#\JJ	.	16ccc#\JJ	.	16c#\JJ	.	.	.	.	.	.	.	.
!	!	!	!	!	!	!LO:LB:g=original	!	!	!	!	!	!	!	!
=59	=59	=59	=59	=59	=59	=59	=59	=59	=59	=59	=59	=59	=59	=59
16F#\LL	.	16ddd\LL	.	16ddd\LL	.	16d\LL	.	4.ryy	.	4.ryy	.	4.ryy	4.ryy	4.ryy
16G\JJ	.	16dd\JJ	.	16dd\JJ	.	16A\JJ	.	.	.	.	.	.	.	.
!LO:TX:a:t=P:problem:mixed beam	!	!	!	!	!	!	!	!	!	!	!	!	!	!
8A\L	.	8ff#\L	.	8ff#\L	.	8f#\L	-lei-	.	.	.	.	.	.	.
8AA/J	.	8ee\J	.	8ee\J	.	8e\J	.	.	.	.	.	.	.	.
=60	=60	=60	=60	=60	=60	=60	=60	=60	=60	=60	=60	=60	=60	=60
4D\	.	16dd\LL	.	16dd\LL	.	4d\	-son	4.ryy	.	4.ryy	.	4.ryy	4.ryy	4.ryy
.	.	16ee\JJ	.	16ee\JJ	.	.	.	.	.	.	.	.	.	.
.	.	8ff#\L	.	8ff#\L	.	.	.	.	.	.	.	.	.	.
8r	.	8gg\J	.	8gg\J	.	8r	.	.	.	.	.	.	.	.
=61	=61	=61	=61	=61	=61	=61	=61	=61	=61	=61	=61	=61	=61	=61
!	!LO:DY:t=for	!	!	!	!	!	!	!	!	!	!	!	!	!
!	!LO:DY:a	!	!	!	!	!LO:N:vis=00	!	!	!	!	!	!	!	!
16D\LL	f	16aa\LL	.	16aa\LL	.	1.r	.	4.ryy	.	4.ryy	.	4.ryy	4.ryy	4.ryy
16E\JJ	.	16ccc#\JJ	.	16ccc#\JJ	.	.	.	.	.	.	.	.	.	.
8F#\L	.	4ddd\	.	4ddd\	.	.	.	.	.	.	.	.	.	.
8D\J	.	.	.	.	.	.	.	.	.	.	.	.	.	.
=62	=62	=62	=62	=62	=62	=62	=62	=62	=62	=62	=62	=62	=62	=62
!LO:TX:a:t=P:problem:mixed beam	!	!	!	!	!	!	!	!	!	!	!	!	!	!
8G\L	.	8bb\L	.	8bb\L	.	.	.	4.ryy	.	4.ryy	.	4.ryy	4.ryy	4.ryy
8A\	.	8aa\	.	8aa\	.	.	.	.	.	.	.	.	.	.
8AA/J	.	8gg\J	.	8gg\J	.	.	.	.	.	.	.	.	.	.
=63	=63	=63	=63	=63	=63	=63	=63	=63	=63	=63	=63	=63	=63	=63
8D\L	.	16ff#\LL	.	16ff#\LL	.	.	.	4.ryy	.	4.ryy	.	4.ryy	4.ryy	4.ryy
.	.	16ee\JJ	.	16ee\JJ	.	.	.	.	.	.	.	.	.	.
8F#\	.	4dd\	.	4dd\	.	.	.	.	.	.	.	.	.	.
8D\J	.	.	.	.	.	.	.	.	.	.	.	.	.	.
=64	=64	=64	=64	=64	=64	=64	=64	=64	=64	=64	=64	=64	=64	=64
8A\L	.	16ee\LL	.	16ee\LL	.	.	.	4.ryy	.	4.ryy	.	4.ryy	4.ryy	4.ryy
.	.	16ff#\JJ	.	16ff#\JJ	.	.	.	.	.	.	.	.	.	.
8c#\	.	4gg\	.	4gg\	.	.	.	.	.	.	.	.	.	.
8A\J	.	.	.	.	.	.	.	.	.	.	.	.	.	.
!	!	!	!	!LO:LB:g=original	!	!	!	!	!	!	!	!	!	!
=65	=65	=65	=65	=65	=65	=65	=65	=65	=65	=65	=65	=65	=65	=65
!	!	!	!	!	!	!LO:N:vis=00	!	!	!	!	!	!	!	!
8d\L	.	16ff#\LL	.	16ff#\LL	.	1.r	.	4.ryy	.	4.ryy	.	4.ryy	4.ryy	4.ryy
.	.	16ee\J	.	16ee\JJ	.	.	.	.	.	.	.	.	.	.
8F#\	.	8dd\J	.	4dd\	.	.	.	.	.	.	.	.	.	.
8A\J	.	8r	.	.	.	.	.	.	.	.	.	.	.	.
!	!	!LO:LB:g=original	!	!	!	!	!	!	!	!	!	!	!	!
=66	=66	=66	=66	=66	=66	=66	=66	=66	=66	=66	=66	=66	=66	=66
8D\L	.	16dd\LL	.	16dd\LL	.	.	.	4.ryy	.	4.ryy	.	4.ryy	4.ryy	4.ryy
.	.	16ccc#\	.	16ccc#\JJ	.	.	.	.	.	.	.	.	.	.
8F#\	.	16ddd\	.	16ddd\LL	.	.	.	.	.	.	.	.	.	.
.	.	16ccc#\	.	16ccc#\JJ	.	.	.	.	.	.	.	.	.	.
8D\J	.	16ddd\	.	16ddd\LL	.	.	.	.	.	.	.	.	.	.
.	.	16ccc#\JJ	.	16ccc#\JJ	.	.	.	.	.	.	.	.	.	.
=67	=67	=67	=67	=67	=67	=67	=67	=67	=67	=67	=67	=67	=67	=67
16F#\LL	.	16ddd\LL	.	16ddd\LL	.	.	.	4.ryy	.	4.ryy	.	4.ryy	4.ryy	4.ryy
16G\JJ	.	16dd\JJ	.	16dd\JJ	.	.	.	.	.	.	.	.	.	.
!LO:TX:a:t=P:problem:mixed beam	!	!	!	!	!	!	!	!	!	!	!	!	!	!
8A\L	.	8ff#\L	.	8ff#\L	.	.	.	.	.	.	.	.	.	.
8AA/J	.	8dd\J	.	8ee\J	.	.	.	.	.	.	.	.	.	.
=68	=68	=68	=68	=68	=68	=68	=68	=68	=68	=68	=68	=68	=68	=68
!LO:TX:t=P:problem:w źródle takty 68-69 zapisane jako repetycja taktów 66-67	!	!	!	!	!	!	!	!	!	!	!	!	!	!
8D\L	.	16dd\LL	.	16dd\LL	.	.	.	4.ryy	.	4.ryy	.	4.ryy	4.ryy	4.ryy
.	.	16ccc#\	.	16ccc#\JJ	.	.	.	.	.	.	.	.	.	.
8F#\	.	16ddd\	.	16ddd\LL	.	.	.	.	.	.	.	.	.	.
.	.	16ccc#\	.	16ccc#\JJ	.	.	.	.	.	.	.	.	.	.
8D\J	.	16ddd\	.	16ddd\LL	.	.	.	.	.	.	.	.	.	.
.	.	16ccc#\JJ	.	16ccc#\JJ	.	.	.	.	.	.	.	.	.	.
=69	=69	=69	=69	=69	=69	=69	=69	=69	=69	=69	=69	=69	=69	=69
!	!	!	!	!	!	!LO:N:vis=0	!	!	!	!	!	!	!	!
16F#\LL	.	16ddd\LL	.	16ddd\LL	.	2.r	.	4.ryy	.	4.ryy	.	4.ryy	4.ryy	4.ryy
16G\JJ	.	16dd\JJ	.	16dd\JJ	.	.	.	.	.	.	.	.	.	.
!LO:TX:a:t=P:problem:mixed beam	!	!	!	!	!	!	!	!	!	!	!	!	!	!
8A\L	.	8ff#\L	.	8ff#\L	.	.	.	.	.	.	.	.	.	.
8AA/J	.	8ee\J	.	8ee\J	.	.	.	.	.	.	.	.	.	.
=70	=70	=70	=70	=70	=70	=70	=70	=70	=70	=70	=70	=70	=70	=70
8D\L	.	16.dd\LL	.	16.dd\LL	.	.	.	4.ryy	.	4.ryy	.	4.ryy	4.ryy	4.ryy
.	.	32ffn\JJk	.	32ffn\JJk	.	.	.	.	.	.	.	.	.	.
8G#X\	.	8.ff\L	.	8.ff\L	.	.	.	.	.	.	.	.	.	.
8G#\J	.	.	.	.	.	.	.	.	.	.	.	.	.	.
.	.	32ee\LL	.	32ee\LL	.	.	.	.	.	.	.	.	.	.
.	.	32dd\JJJ	.	32dd\JJJ	.	.	.	.	.	.	.	.	.	.
=71	=71	=71	=71	=71	=71	=71	=71	=71	=71	=71	=71	=71	=71	=71
!LO:TX:a:t=P:problem:mixed beam	!	!	!	!	!	!	!	!	!	!	!	!	!	!
8A\L	.	16cc#\LL	.	16cc#\LL	.	8d\	Chri-	4.ryy	.	4.ryy	.	4.ryy	4.ryy	4.ryy
.	.	16dd\JJ	.	16dd\JJ	.	.	.	.	.	.	.	.	.	.
8A\	.	8f#X/L	.	8f#X/L	.	4f#\	-ste	.	.	.	.	.	.	.
8AA/J	.	8e/J	.	8e/J	.	.	.	.	.	.	.	.	.	.
=72	=72	=72	=72	=72	=72	=72	=72	=72	=72	=72	=72	=72	=72	=72
4D\	.	4d/	.	4d/	.	16e\LL	.	4.ryy	.	4.ryy	.	4.ryy	4.ryy	4.ryy
.	.	.	.	.	.	16d\JJ	.	.	.	.	.	.	.	.
.	.	.	.	.	.	4A\	.	.	.	.	.	.	.	.
8r	.	8r	.	8r	.	.	.	.	.	.	.	.	.	.
!LO:LB:g=original	!	!	!	!	!	!	!	!	!	!	!	!	!	!
=73	=73	=73	=73	=73	=73	=73	=73	=73	=73	=73	=73	=73	=73	=73
!	!LO:DY:rj	!	!	!	!LO:DY:a	!	!	!	!	!	!	!	!	!
8r	p	8r	.	8r	p	16e\LL	e-	4.ryy	.	4.ryy	.	4.ryy	4.ryy	4.ryy
.	.	.	.	.	.	16f#\JJ	.	.	.	.	.	.	.	.
!	!LO:DY:a	!	!	!	!	!	!	!	!	!	!	!	!	!
8D\L	.	8a/L	.	8ff#\L	.	4g\	-lei-	.	.	.	.	.	.	.
8D\J	.	8a/J	.	8ff#\J	.	.	.	.	.	.	.	.	.	.
=74	=74	=74	=74	=74	=74	=74	=74	=74	=74	=74	=74	=74	=74	=74
8A\L	.	8cc#\L	.	8ee\L	.	4f#\	-son	4.ryy	.	4.ryy	.	4.ryy	4.ryy	4.ryy
8A\	.	8cc#\	.	8ee\	.	.	.	.	.	.	.	.	.	.
8A\J	.	8cc#\J	.	8ee\J	.	8A/	e-	.	.	.	.	.	.	.
=75	=75	=75	=75	=75	=75	=75	=75	=75	=75	=75	=75	=75	=75	=75
8AA/L	.	16cc#\LL	.	16ee\LL	.	4.B\	-lei-	4.ryy	.	4.ryy	.	4.ryy	4.ryy	4.ryy
.	.	16dd\JJ	.	16ff#\JJ	.	.	.	.	.	.	.	.	.	.
8AA/	.	4ee\	.	4gg\	.	.	.	.	.	.	.	.	.	.
8AA/J	.	.	.	.	.	.	.	.	.	.	.	.	.	.
=76	=76	=76	=76	=76	=76	=76	=76	=76	=76	=76	=76	=76	=76	=76
8D\L	.	8dd\L	.	8ff#\L	.	4.A\	.	4.ryy	.	4.ryy	.	4.ryy	4.ryy	4.ryy
8F#\	.	8a\	.	8ff#\	.	.	.	.	.	.	.	.	.	.
8D\J	.	8a\J	.	8aa\J	.	.	.	.	.	.	.	.	.	.
=77	=77	=77	=77	=77	=77	=77	=77	=77	=77	=77	=77	=77	=77	=77
8G\L	.	8r	.	8r	.	4.G/	.	4.ryy	.	4.ryy	.	4.ryy	4.ryy	4.ryy
8E\	.	8gg\L	.	8bb\L	.	.	.	.	.	.	.	.	.	.
8C#\J	.	8gg\J	.	8bb\J	.	.	.	.	.	.	.	.	.	.
=78	=78	=78	=78	=78	=78	=78	=78	=78	=78	=78	=78	=78	=78	=78
8F#\L	.	8r	.	8r	.	8F#/	-son	4.ryy	.	4.ryy	.	4.ryy	4.ryy	4.ryy
8D\	.	8ff#\L	.	8aa\L	.	16d\LL	Chri-	.	.	.	.	.	.	.
.	.	.	.	.	.	16e\JJ	.	.	.	.	.	.	.	.
8BB\J	.	8ff#\J	.	8aa\J	.	16f#\LL	-ste	.	.	.	.	.	.	.
.	.	.	.	.	.	16g\JJ	.	.	.	.	.	.	.	.
=79	=79	=79	=79	=79	=79	=79	=79	=79	=79	=79	=79	=79	=79	=79
8E\L	.	8r	.	8r	.	16a\LL	e-	4.ryy	.	4.ryy	.	4.ryy	4.ryy	4.ryy
.	.	.	.	.	.	16g\JJ	.	.	.	.	.	.	.	.
8C#\	.	8ee\L	.	8gg\L	.	16f#\LL	-lei-	.	.	.	.	.	.	.
.	.	.	.	.	.	16e\	.	.	.	.	.	.	.	.
8AA\J	.	8ee\J	.	8gg\J	.	16d\	.	.	.	.	.	.	.	.
.	.	.	.	.	.	16cn\JJ	.	.	.	.	.	.	.	.
=80	=80	=80	=80	=80	=80	=80	=80	=80	=80	=80	=80	=80	=80	=80
8D\L	.	8r	.	8r	.	8B\	-son	4.ryy	.	4.ryy	.	4.ryy	4.ryy	4.ryy
8D\	.	8a/L	.	8ff#\L	.	16e\LL	Chri-	.	.	.	.	.	.	.
.	.	.	.	.	.	16f#\JJ	.	.	.	.	.	.	.	.
8D\J	.	8a/J	.	8ff#\J	.	16g\LL	-ste	.	.	.	.	.	.	.
.	.	.	.	.	.	16a\JJ	.	.	.	.	.	.	.	.
!	!	!	!	!	!	!LO:LB:g=original	!	!	!	!	!	!	!	!
=81	=81	=81	=81	=81	=81	=81	=81	=81	=81	=81	=81	=81	=81	=81
8D\L	.	8a/L	.	8ff#\L	.	16b\LL	e-	4.ryy	.	4.ryy	.	4.ryy	4.ryy	4.ryy
.	.	.	.	.	.	16a\JJ	.	.	.	.	.	.	.	.
8D\	.	8a/	.	8ff#\	.	16g\LL	-lei-	.	.	.	.	.	.	.
.	.	.	.	.	.	16f#\	.	.	.	.	.	.	.	.
8D\J	.	8a/J	.	8ff#\J	.	16e\	.	.	.	.	.	.	.	.
.	.	.	.	.	.	16d\JJ	.	.	.	.	.	.	.	.
!	!	!	!	!LO:LB:g=original	!	!	!	!	!	!	!	!	!	!
=82	=82	=82	=82	=82	=82	=82	=82	=82	=82	=82	=82	=82	=82	=82
8G\L	.	8b\L	.	8gg\L	.	4c#\	.	4.ryy	.	4.ryy	.	4.ryy	4.ryy	4.ryy
8G\	.	8b\	.	8ee\	.	.	.	.	.	.	.	.	.	.
8G\J	.	8b\J	.	8ee\J	.	8d\	-son	.	.	.	.	.	.	.
=83	=83	=83	=83	=83	=83	=83	=83	=83	=83	=83	=83	=83	=83	=83
8G\L	.	8b\L	.	8ee\L	.	8e\	e-	4.ryy	.	4.ryy	.	4.ryy	4.ryy	4.ryy
.	.	.	.	.	.	8qqd/	.	.	.	.	.	.	.	.
8G\	.	8b\	.	8ee\	.	4c#\	-lei-	.	.	.	.	.	.	.
8G\J	.	8b\J	.	8ee\J	.	.	.	.	.	.	.	.	.	.
!	!	!LO:LB:g=original	!	!	!	!	!	!	!	!	!	!	!	!
=84	=84	=84	=84	=84	=84	=84	=84	=84	=84	=84	=84	=84	=84	=84
8A\L	.	8cc#\L	.	8ee\L	.	4d\	-son	4.ryy	.	4.ryy	.	4.ryy	4.ryy	4.ryy
8G\	.	8cc#\	.	8ee\	.	.	.	.	.	.	.	.	.	.
8F#\J	.	8dd\J	.	8ff#\J	.	8f#\	e-	.	.	.	.	.	.	.
=85	=85	=85	=85	=85	=85	=85	=85	=85	=85	=85	=85	=85	=85	=85
!LO:TX:a:t=P:problem:mixed beam	!	!	!	!	!	!	!	!	!	!	!	!	!	!
8G\L	.	8ee\	.	8gg\	.	4.A#X\	.	4.ryy	.	4.ryy	.	4.ryy	4.ryy	4.ryy
.	.	8qqdd/	.	8qqff#/	.	.	.	.	.	.	.	.	.	.
8A\	.	4cc#\	.	4ee\	.	.	.	.	.	.	.	.	.	.
8AA/J	.	.	.	.	.	.	.	.	.	.	.	.	.	.
=86	=86	=86	=86	=86	=86	=86	=86	=86	=86	=86	=86	=86	=86	=86
8D\L	.	8dd\L	.	8ff#\L	.	4.B\	.	4.ryy	.	4.ryy	.	4.ryy	4.ryy	4.ryy
8D\	.	8dd\	.	8ff#\	.	.	.	.	.	.	.	.	.	.
8BB\J	.	8dd\J	.	8ff#\J	.	.	.	.	.	.	.	.	.	.
=87	=87	=87	=87	=87	=87	=87	=87	=87	=87	=87	=87	=87	=87	=87
8F#\L	.	8r	.	8r	.	4e\	.	4.ryy	.	4.ryy	.	4.ryy	4.ryy	4.ryy
8F#\	.	8a#X/L	.	8cc#\L	.	.	.	.	.	.	.	.	.	.
8F#\J	.	8a#/J	.	8cc#\J	.	8d\	.	.	.	.	.	.	.	.
=88	=88	=88	=88	=88	=88	=88	=88	=88	=88	=88	=88	=88	=88	=88
8F#\L	.	8r	.	8r	.	8d\	.	4.ryy	.	4.ryy	.	4.ryy	4.ryy	4.ryy
8F#\	.	8b\L	.	8dd\L	.	8c#\	-son	.	.	.	.	.	.	.
8F#\J	.	8b\J	.	8dd\J	.	8r	.	.	.	.	.	.	.	.
=89	=89	=89	=89	=89	=89	=89	=89	=89	=89	=89	=89	=89	=89	=89
!LO:TX:a:t=P:problem:mixed beam	!	!	!	!	!	!	!	!	!	!	!	!	!	!
8F#\L	.	8r	.	8r	.	8B\	Chri-	4.ryy	.	4.ryy	.	4.ryy	4.ryy	4.ryy
8AA#X/	.	8cc#\L	.	8ee\L	.	4B\	-ste	.	.	.	.	.	.	.
8BB/J	.	8b\J	.	8dd\J	.	.	.	.	.	.	.	.	.	.
=90	=90	=90	=90	=90	=90	=90	=90	=90	=90	=90	=90	=90	=90	=90
8F#\L	.	8b\L	.	8dd\L	.	16B\LL	e-	4.ryy	.	4.ryy	.	4.ryy	4.ryy	4.ryy
.	.	.	.	.	.	16e\JJ	.	.	.	.	.	.	.	.
16F#\L	.	8a#X\	.	8cc#\	.	8d\L	-lei-	.	.	.	.	.	.	.
16E\	.	.	.	.	.	.	.	.	.	.	.	.	.	.
16D\	.	8a#\J	.	8cc#\J	.	8c#\J	.	.	.	.	.	.	.	.
16C#\JJ	.	.	.	.	.	.	.	.	.	.	.	.	.	.
=91	=91	=91	=91	=91	=91	=91	=91	=91	=91	=91	=91	=91	=91	=91
!	!	!LO:TX:a:t=P:problem:mixed beam	!	!LO:TX:a:t=P:problem:mixed beam	!	!	!	!	!	!	!	!	!	!
8BB/L	.	16dd/LL	.	16b/LL	.	8B\	-son	4.ryy	.	4.ryy	.	4.ryy	4.ryy	4.ryy
.	.	16aa#X\JJ	.	16aa#X\JJ	.	.	.	.	.	.	.	.	.	.
8D/	.	16bb\LL	.	16bb\LL	.	4B\	e-	.	.	.	.	.	.	.
.	.	16aa#\	.	16aa#\	.	.	.	.	.	.	.	.	.	.
8BB/J	.	16bb\	.	16bb\	.	.	.	.	.	.	.	.	.	.
.	.	16aa#\JJ	.	16aa#\JJ	.	.	.	.	.	.	.	.	.	.
=92	=92	=92	=92	=92	=92	=92	=92	=92	=92	=92	=92	=92	=92	=92
!	!	!LO:TX:a:t=P:problem:mixed beam	!	!LO:TX:a:t=P:problem:mixed beam	!	!	!	!	!	!	!	!	!	!
16D\LL	.	16bb\LL	.	16bb\LL	.	16B\LL	-lei-	4.ryy	.	4.ryy	.	4.ryy	4.ryy	4.ryy
16E\JJ	.	16b/JJ	.	16b/JJ	.	16e\JJ	.	.	.	.	.	.	.	.
!LO:TX:a:t=P:problem:mixed beam	!	!	!	!	!	!	!	!	!	!	!	!	!	!
8F#\L	.	8dd\L	.	8dd\L	.	8d\L	.	.	.	.	.	.	.	.
8FF#/J	.	8cc#\J	.	8cc#\J	.	8c#\J	.	.	.	.	.	.	.	.
!	!	!	!	!	!	!LO:LB:g=original	!	!	!	!	!	!	!	!
=93	=93	=93	=93	=93	=93	=93	=93	=93	=93	=93	=93	=93	=93	=93
!	!	!LO:TX:a:t=P:problem:mixed beam	!	!LO:TX:a:t=P:problem:mixed beam	!	!	!	!	!	!	!	!	!	!
8BB/L	.	16b/LL	.	16b/LL	.	16B\	-son	4.ryy	.	4.ryy	.	4.ryy	4.ryy	4.ryy
.	.	16aa#X\JJ	.	16aa#X\JJ	.	16d\	e-	.	.	.	.	.	.	.
8D/	.	16bb\LL	.	16bb\LL	.	8d\L	-lei-	.	.	.	.	.	.	.
.	.	16aa#\	.	16aa#\	.	.	.	.	.	.	.	.	.	.
8BB/J	.	16bb\	.	16bb\	.	16c#\L	.	.	.	.	.	.	.	.
.	.	16aa#\JJ	.	16aa#\JJ	.	16B\JJ	.	.	.	.	.	.	.	.
!LO:LB:g=original	!	!	!	!	!	!	!	!	!	!	!	!	!	!
=94	=94	=94	=94	=94	=94	=94	=94	=94	=94	=94	=94	=94	=94	=94
!	!	!LO:TX:a:t=P:problem:mixed beam	!	!LO:TX:a:t=P:problem:mixed beam	!	!	!	!	!	!	!	!	!	!
16D\LL	.	16bb\LL	.	16bb\LL	.	16A#X\	-son	4.ryy	.	4.ryy	.	4.ryy	4.ryy	4.ryy
16E\JJ	.	16b/JJ	.	16b/JJ	.	16B\	e-	.	.	.	.	.	.	.
!LO:TX:a:t=P:problem:mixed beam	!	!	!	!	!	!	!	!	!	!	!	!	!	!
8F#\L	.	8dd\L	.	8dd\L	.	8d\L	-lei-	.	.	.	.	.	.	.
8FF#/J	.	8cc#\J	.	8cc#\J	.	8c#\J	.	.	.	.	.	.	.	.
=95	=95	=95	=95	=95	=95	=95	=95	=95	=95	=95	=95	=95	=95	=95
*M3/8	*	*M3/8	*	*M3/8	*	*M3/8	*	*M3/8	*	*M3/8	*	*M3/8	*M3/8	*M3/8
!LO:TX:t=P:problem:w źródle brak zmiany metrum	!	!LO:TX:t=P:problem:w źródle brak zmiany metrum	!	!LO:TX:t=P:problem:w źródle brak zmiany metrum	!	!	!	!	!	!	!	!	!	!
!LO:TX:a:t=P:problem:mixed beam	!	!	!	!	!	!	!	!	!	!	!	!	!	!
8BB/L	.	8b\L	.	16b\LL	.	4B\	-son	4.ryy	.	4.ryy	.	4.ryy	4.ryy	4.ryy
.	.	.	.	16dd\JJ	.	.	.	.	.	.	.	.	.	.
8E#X\	.	8g#X\	.	8.dd\L	.	.	.	.	.	.	.	.	.	.
8E#\J	.	8g#\J	.	.	.	8r	.	.	.	.	.	.	.	.
.	.	.	.	32cc#\LL	.	.	.	.	.	.	.	.	.	.
.	.	.	.	32b\JJJ	.	.	.	.	.	.	.	.	.	.
=96	=96	=96	=96	=96	=96	=96	=96	=96	=96	=96	=96	=96	=96	=96
!	!	!	!	!	!	!LO:TX:t=P:problem:w źródle w tym miejscu pauzy o łącznej długości 22 taktów	!	!	!	!	!	!	!	!
8F#\L	.	16a#X/LL	.	16a#X/LL	.	4.r	.	4.ryy	.	4.ryy	.	4.ryy	4.ryy	4.ryy
.	.	16b/JJ	.	16b/JJ	.	.	.	.	.	.	.	.	.	.
8F#\	.	8d/L	.	8d/L	.	.	.	.	.	.	.	.	.	.
!LO:TX:b:t=Da Capo	!	!LO:TX:a:t=Da Capo	!	!LO:TX:a:t=Da Capo	!	!	!	!	!	!	!	!	!	!
!	!	!LO:TX:t=P:problem:w źródle "Da Capo" zapisane za taktem 96, na pięciolinii	!	!LO:TX:t=P:problem:w źródle "Da Capo" zapisane za taktem 96, na pięciolinii	!	!	!	!	!	!	!	!	!	!
!LO:TX:t=P:problem:w źródle "Da Capo" zapisane za taktem 96, na pięciolinii	!	!	!	!	!	!	!	!	!	!	!	!	!	!
8F#\J	.	8c#/J	.	8c#/J	.	.	.	.	.	.	.	.	.	.
!	!	!LO:LB:g=original	!	!LO:LB:g=original	!	!	!	!	!	!	!	!	!	!
=97||	=97||	=97||	=97||	=97||	=97||	=97||	=97||	=97||	=97||	=97||	=97||	=97||	=97||	=97||
*M4/4	*	*M4/4	*	*M4/4	*	*M4/4	*	*M4/4	*	*M4/4	*	*M4/4	*M4/4	*M4/4
*met(c)	*	*met(c)	*	*met(c)	*	*met(c)	*	*met(c)	*	*met(c)	*	*met(c)	*met(c)	*met(c)
!LO:TX:a:t=Adagio	!	!LO:TX:a:t=Adagio	!	!LO:TX:a:t=Adagio	!	!LO:TX:a:t=Adagio	!	!	!	!	!	!	!	!
!LO:TX:b:t=Kirie	!	!LO:TX:b:t=Kirie	!	!	!	!	!	!	!	!	!	!	!	!
4B\	.	4dd#X\	.	4ff#\	.	4d#X\	Ki-	4ff#\	Ki-	1ryy	.	1ryy	1ryy	1ryy
4B\	.	4dd#\	.	4ff#\	.	4d#\	-ri-	4ff#\	-ri-	.	.	.	.	.
4A\	.	4dd#\	.	4ff#\	.	4d#\	-e	4ff#\	-e	.	.	.	.	.
4A\	.	4dd#\	.	4ff#\	.	4d#\	e-	4ff#\	e-	.	.	.	.	.
=98	=98	=98	=98	=98	=98	=98	=98	=98	=98	=98	=98	=98	=98	=98
4G\	.	4ee\	.	4gg\	.	4e\	-lei-	4gg\	-lei-	1ryy	.	1ryy	1ryy	1ryy
4E\	.	4ee\	.	4gg\	.	4e\	-son	4gg\	-son	.	.	.	.	.
4r	.	2r	.	2r	.	2r;	.	2r;	.	.	.	.	.	.
4r	.	.	.	.	.	.	.	.	.	.	.	.	.	.
=99	=99	=99	=99	=99	=99	=99	=99	=99	=99	=99	=99	=99	=99	=99
4A\	.	4cc#\	.	4ee\	.	4c#\	ki-	4ee\	ki-	1ryy	.	1ryy	1ryy	1ryy
4A\	.	4cc#\	.	4ee\	.	4c#\	-ri-	4ee\	-ri-	.	.	.	.	.
4G\	.	4cc#\	.	4ee\	.	4c#\	-e	4ee\	-e	.	.	.	.	.
4G\	.	4cc#\	.	4ee\	.	4c#\	e-	4ee\	e-	.	.	.	.	.
=100	=100	=100	=100	=100	=100	=100	=100	=100	=100	=100	=100	=100	=100	=100
4F#\	.	4dd\	.	4ff#\	.	4d\	-lei-	4ff#\	-lei-	1ryy	.	1ryy	1ryy	1ryy
4D\	.	4dd\	.	4ff#\	.	4d\	-son	4ff#\	-son	.	.	.	.	.
2r	.	2r	.	2r	.	2r;	.	2r;	.	.	.	.	.	.
=101	=101	=101	=101	=101	=101	=101	=101	=101	=101	=101	=101	=101	=101	=101
4F#\	.	4a/	.	4dd\	.	4A\	ki-	4dd\	ki-	1ryy	.	1ryy	1ryy	1ryy
4F#\	.	4a/	.	4dd\	.	4A\	-ri-	4dd\	-ri-	.	.	.	.	.
8G\L	.	8b\L	.	8dd\L	.	8B\L	-e	8dd\L	-e	.	.	.	.	.
8A\J	.	8cc#\J	.	8ee\J	.	8c#\J	.	8ee\J	.	.	.	.	.	.
4B\	.	4dd\	.	4ff#\	.	4d\	e-	4ff#\	e-	.	.	.	.	.
!	!	!	!	!	!	!LO:LB:g=original	!	!	!	!	!	!	!	!
=102	=102	=102	=102	=102	=102	=102	=102	=102	=102	=102	=102	=102	=102	=102
4A\	.	2cc#\	.	2ee\	.	2c#\	-lei-	2ee\	-lei-	1ryy	.	1ryy	1ryy	1ryy
4AA/	.	.	.	.	.	.	.	.	.	.	.	.	.	.
!	!	!LO:TX:b:t=Verte Kirie All(egr)o	!	!LO:TX:b:t=Verte Kirie All(egr)o	!	!	!	!	!	!	!	!	!	!
2D\	.	2dd\	.	2ff#\	.	2d\	-son	2ff#\	-son	.	.	.	.	.
!LO:LB:g=original	!	!LO:PB:g=original	!	!LO:PB:g=original	!	!	!	!	!	!LO:LB:g=original	!	!LO:LB:g=original	!	!
!	!	!	!	!	!	!	!	!LO:LB:g=original	!	!	!	!	!	!
=103||	=103||	=103||	=103||	=103||	=103||	=103||	=103||	=103||	=103||	=103||	=103||	=103||	=103||	=103||
*M2/4	*	*M2/4	*	*M2/4	*	*M2/4	*	*M2/4	*	*M2/4	*	*M2/4	*M2/4	*M2/4
!	!	!LO:TX:b:t=Kirie	!	!LO:TX:b:t=Kirie	!	!	!	!	!	!LO:TX:b:t=Kirie	!	!LO:TX:b:t=Kirie	!	!
!LO:TX:a:t=All(egr)o	!	!LO:TX:a:t=All(egr)o	!	!LO:TX:a:t=All(egr)o	!	!LO:TX:a:t=All(egr)o&colon;	!	!LO:TX:a:t=All(egr)o	!	!LO:TX:a:t=All(egr)o	!	!LO:TX:a:t=All(egr)o	!	!
4D\	.	4ff# 4a 4d/	.	4ff# 4a 4d/	.	4d\	Ki-	4ff#\	Ki-	4dd\	.	4ff#\	2ryy	2ryy
4D\	.	4ff# 4a 4d/	.	4ff# 4a 4d/	.	4d\	-ri-	4ff#\	-ri-	4dd\	.	4ff#\	.	.
=104	=104	=104	=104	=104	=104	=104	=104	=104	=104	=104	=104	=104	=104	=104
4D\	.	4ff# 4a 4d/	.	4ff# 4a 4d/	.	4d\	-e	4ff#\	-e	4dd\	.	4ff#\	2ryy	2ryy
4r	.	8r	.	8r	.	4r	.	4r	.	4r	.	4r	.	.
.	.	8dd\	.	8dd\	.	.	.	.	.	.	.	.	.	.
=105	=105	=105	=105	=105	=105	=105	=105	=105	=105	=105	=105	=105	=105	=105
!	!	!	!	!	!	!LO:N:vis=0	!	!LO:N:vis=0	!	!	!	!	!	!
8D\L	.	8ff#\L	.	8ff#\L	.	1r	.	1r	.	8dd\L	.	8dd\L	2ryy	2ryy
8D\	.	8aa\	.	8aa\	.	.	.	.	.	8dd\	.	8dd\	.	.
8D\	.	8gg\	.	8gg\	.	.	.	.	.	8dd\	.	8dd\	.	.
8D\J	.	8bb\J	.	8bb\J	.	.	.	.	.	8dd\J	.	8dd\J	.	.
=106	=106	=106	=106	=106	=106	=106	=106	=106	=106	=106	=106	=106	=106	=106
8D\L	.	8aa\	.	8aa\L	.	.	.	.	.	8dd\L	.	8dd\L	2ryy	2ryy
8D\	.	4ddd\	.	4ddd\J	.	.	.	.	.	8dd\	.	8dd\	.	.
8D\	.	.	.	.	.	.	.	.	.	8dd\	.	8dd\	.	.
8D\J	.	8dd\	.	8dd\J	.	.	.	.	.	8dd\J	.	8dd\J	.	.
=107	=107	=107	=107	=107	=107	=107	=107	=107	=107	=107	=107	=107	=107	=107
!	!	!	!	!	!	!	!	!	!	!	!LO:DY:t=p&colon;	!	!	!
!	!	!	!	!	!	!	!	!	!	!	!LO:DY:a	!LO:TX:t=P:problem:w źródle takt 107 zapisany jako repetycja taktu 106	!	!
8D\L	.	8ff#\L	.	8ff#\L	.	2r	.	2r	.	8dd\L	p	8dd\L	2ryy	2ryy
8D\	.	8aa\	.	8aa\	.	.	.	.	.	8dd\	.	8dd\	.	.
8D\	.	8gg\	.	8gg\	.	.	.	.	.	8dd\	.	8dd\	.	.
8D\J	.	8bb\J	.	8bb\J	.	.	.	.	.	8dd\J	.	8dd\J	.	.
=108	=108	=108	=108	=108	=108	=108	=108	=108	=108	=108	=108	=108	=108	=108
8D\L	.	8aa\	.	8aa\L	.	4r	.	4r	.	8dd\L	.	8dd\L	2ryy	2ryy
8D\	.	4ddd\	.	4ddd\J	.	.	.	.	.	8dd\	.	8dd\	.	.
8D\	.	.	.	.	.	8r	.	8r	.	8dd\	.	8dd\	.	.
8F#\J	.	8ff#\	.	8aa\J	.	8d\	e-	8ff#\	e-	8dd\J	.	8ff#\J	.	.
=109	=109	=109	=109	=109	=109	=109	=109	=109	=109	=109	=109	=109	=109	=109
4G\	.	4ee\	.	4gg\	.	4e\	-lei-	(4gg\	-lei-	4ee\	.	4gg\	2ryy	2ryy
4A\	.	4cc#\	.	4ee\	.	4c#\	.	4ee\)	.	4a/	.	4ee\	.	.
=110	=110	=110	=110	=110	=110	=110	=110	=110	=110	=110	=110	=110	=110	=110
4D/	.	4dd\	.	4ff#\	.	4d\	-son	4ff#\	-son	4dd\	.	4ff#\	2ryy	2ryy
4d\	.	4ff#\	.	4aa\	.	4d\	e-	4ff#\	e-	4dd\	.	4ff#\	.	.
=111	=111	=111	=111	=111	=111	=111	=111	=111	=111	=111	=111	=111	=111	=111
8D\L	.	16dd\LL	.	16ff#\LL	.	2d\	-lei-	2ff#\	-lei-	8dd\L	.	8ff#\L	2ryy	2ryy
.	.	16ff#\	.	16ddd\	.	.	.	.	.	.	.	.	.	.
8E\	.	16ff#\	.	16ddd\	.	.	.	.	.	16dd\L	.	16ff#\L	.	.
.	.	16ff#\JJ	.	16ddd\JJ	.	.	.	.	.	16dd\JJ	.	16ff#\JJ	.	.
8F#\	.	16ff#\LL	.	16ddd\LL	.	.	.	.	.	8dd\L	.	8ff#\L	.	.
.	.	16ff#\	.	16ddd\	.	.	.	.	.	.	.	.	.	.
8G\J	.	16ff#\	.	16ddd\	.	.	.	.	.	8dd\J	.	8ff#\J	.	.
.	.	16ff#\JJ	.	16ddd\JJ	.	.	.	.	.	.	.	.	.	.
!	!	!	!	!	!	!	!	!	!	!	!	!LO:LB:g=original	!	!
=112	=112	=112	=112	=112	=112	=112	=112	=112	=112	=112	=112	=112	=112	=112
!LO:TX:a:t=P:problem:mixed beam	!	!	!	!	!	!	!	!	!	!	!	!	!	!
8A\L	.	8ee\L	.	8ccc#\L	.	4c#\	-son	4ee\	-son	8a/L	.	8ee\L	2ryy	2ryy
8AA/	.	8cc#\	.	8ee\	.	.	.	.	.	8a/	.	8ee\	.	.
8C#\	.	8ee\	.	8ccc#\	.	4c#\	e-	4ee\	e-	8a/	.	8ee\	.	.
8AA/J	.	8cc#\J	.	8ee\J	.	.	.	.	.	8a/J	.	8ee\J	.	.
=113	=113	=113	=113	=113	=113	=113	=113	=113	=113	=113	=113	=113	=113	=113
8D\L	.	16dd\LL	.	16dd\LL	.	2d\	-lei	2ff#\	-lei-	8dd\L	.	8ff#\L	2ryy	2ryy
.	.	16ff#\	.	16ddd\	.	.	.	.	.	.	.	.	.	.
8E\	.	16ff#\	.	16ddd\	.	.	.	.	.	16dd\L	.	16ff#\L	.	.
.	.	16ff#\JJ	.	16ddd\JJ	.	.	.	.	.	16dd\JJ	.	16ff#\JJ	.	.
8F#\	.	16ff#\LL	.	16ddd\LL	.	.	.	.	.	8dd\L	.	8ff#\L	.	.
.	.	16ff#\	.	16ddd\	.	.	.	.	.	.	.	.	.	.
8G\J	.	16ff#\	.	16ddd\	.	.	.	.	.	8dd\J	.	8ff#\J	.	.
.	.	16ff#\JJ	.	16ddd\JJ	.	.	.	.	.	.	.	.	.	.
=114	=114	=114	=114	=114	=114	=114	=114	=114	=114	=114	=114	=114	=114	=114
!LO:TX:a:t=P:problem:mixed beam	!	!	!	!	!	!	!	!	!	!	!	!	!	!
8A\L	.	4ee\	.	4ccc#\	.	4c#\	-son	4ee\	-son	4a/	.	4ee\	2ryy	2ryy
8AA/	.	.	.	.	.	.	.	.	.	.	.	.	.	.
8A\	.	16gg\LL	.	16ccc#\LL	.	4e\	e-	4gg\	e-	8a/L	.	8ee\L	.	.
.	.	16gg\	.	16ccc#\	.	.	.	.	.	.	.	.	.	.
8B\J	.	16gg\	.	16ccc#\	.	.	.	.	.	8a/J	.	8ee\J	.	.
.	.	16gg\JJ	.	16ccc#\JJ	.	.	.	.	.	.	.	.	.	.
=115	=115	=115	=115	=115	=115	=115	=115	=115	=115	=115	=115	=115	=115	=115
!	!	!	!	!	!	!LO:LB:g=original	!	!	!	!	!	!	!	!
8c#\L	.	16gg\LL	.	16ccc#\LL	.	2e\	-lei-	2gg\	-lei-	8a/L	.	8ee\L	2ryy	2ryy
.	.	16gg\	.	16ccc#\	.	.	.	.	.	.	.	.	.	.
8d\	.	16gg\	.	16ccc#\	.	.	.	.	.	16a/L	.	8ee\	.	.
.	.	16gg\JJ	.	16ccc#\JJ	.	.	.	.	.	16a/J	.	.	.	.
8e\	.	16gg\LL	.	16ccc#\LL	.	.	.	.	.	8a/	.	8ee\	.	.
.	.	16gg\	.	16ccc#\	.	.	.	.	.	.	.	.	.	.
8A\J	.	16gg\	.	16ccc#\	.	.	.	.	.	8a/J	.	8ee\J	.	.
.	.	16gg\JJ	.	16ccc#\JJ	.	.	.	.	.	.	.	.	.	.
!	!	!	!	!LO:LB:g=original	!	!	!	!	!	!	!	!	!	!
=116	=116	=116	=116	=116	=116	=116	=116	=116	=116	=116	=116	=116	=116	=116
4d\	.	8ff#\L	.	8ccc#\L	.	4d\	-son	4ff#\	-son	4dd\	.	4ff#\	2ryy	2ryy
.	.	8ff#\	.	8aa\	.	.	.	.	.	.	.	.	.	.
4D/	.	8dd\	.	8ff#\	.	4d\	e-	4ff#\	e-	8dd\L	.	8ff#\L	.	.
.	.	8ff#\J	.	8ddd\J	.	.	.	.	.	8dd\J	.	8ff#\J	.	.
!	!	!LO:LB:g=original	!	!	!	!	!	!	!	!	!	!	!	!
=117	=117	=117	=117	=117	=117	=117	=117	=117	=117	=117	=117	=117	=117	=117
4A\	.	4ee\	.	4ee\	.	2c#\	-lei-	2ee\	-lei-	4a/	.	4ee\	2ryy	2ryy
4AA/	.	4ee\	.	4ccc#\	.	.	.	.	.	4a/	.	4ee\	.	.
!	!	!	!	!	!	!	!	!LO:LB:g=original	!	!	!	!	!	!
=118	=118	=118	=118	=118	=118	=118	=118	=118	=118	=118	=118	=118	=118	=118
4D/	.	4ff#\	.	4ddd\	.	4d\	-son	4ff#\	-son	4dd\	.	4ff#\	2ryy	2ryy
!	!	!	!	!LO:TX:a:t=P:problem:mixed beam	!	!	!	!	!	!	!	!	!	!
4d\	.	4ff#\	.	16aa\LL	.	4d\	e-	4ff#\	e-	4dd\	.	4ff#\	.	.
.	.	.	.	16a/	.	.	.	.	.	.	.	.	.	.
.	.	.	.	16aa\	.	.	.	.	.	.	.	.	.	.
.	.	.	.	16a/JJ	.	.	.	.	.	.	.	.	.	.
=119	=119	=119	=119	=119	=119	=119	=119	=119	=119	=119	=119	=119	=119	=119
!	!	!	!	!LO:TX:a:t=P:problem:mixed beam	!	!	!	!	!	!	!	!	!	!
8c#\L	.	16ee\LL	.	16aa\LL	.	8c#\L	-lei-	8ee\L	-lei-	4a/	.	4ee\	2ryy	2ryy
.	.	16ee\	.	16a/	.	.	.	.	.	.	.	.	.	.
8B\	.	16dd\	.	16aa\	.	8d\	.	8dd\	.	.	.	.	.	.
.	.	16dd\JJ	.	16a/JJ	.	.	.	.	.	.	.	.	.	.
!	!	!	!	!LO:TX:a:t=P:problem:mixed beam	!	!	!	!	!	!	!	!	!	!
8A\	.	16cc#\LL	.	16aa\LL	.	8e\	.	8cc#\	.	4r	.	4r	.	.
.	.	16cc#\	.	16a/	.	.	.	.	.	.	.	.	.	.
8G#X\J	.	16b\	.	16aa\	.	8c#\J	.	8b\J	.	.	.	.	.	.
.	.	16b\JJ	.	16a/JJ	.	.	.	.	.	.	.	.	.	.
=120	=120	=120	=120	=120	=120	=120	=120	=120	=120	=120	=120	=120	=120	=120
!	!	!	!	!LO:TX:a:t=P:problem:mixed beam	!	!	!	!	!	!	!	!	!	!
8A\L	.	16cc#\LL	.	16aa\LL	.	8c#\L	.	8cc#\L	-son	4a/	.	4ee\	2ryy	2ryy
.	.	16cc#\JJ	.	16a/	.	.	.	.	.	.	.	.	.	.
8B\	.	16dd\LL	.	16aa\	.	8B\J	.	8dd\J	.	.	.	.	.	.
.	.	16dd\JJ	.	16a/JJ	.	.	.	.	.	.	.	.	.	.
!	!	!	!	!LO:TX:a:t=P:problem:mixed beam	!	!	!	!	!	!	!	!	!	!
8c#\	.	16ee\LL	.	16aa\LL	.	8A\	-son	8ee\	e-	4r	.	4r	.	.
.	.	16ee\	.	16a/	.	.	.	.	.	.	.	.	.	.
8d\J	.	16ff#\	.	16aa\	.	8d\	e-	8ff#\	.	.	.	.	.	.
.	.	16ff#\JJ	.	16a/JJ	.	.	.	.	.	.	.	.	.	.
!	!	!	!	!	!	!	!	!	!	!LO:TX:t=P:problem:	!	!	!	!
=121	=121	=121	=121	=121	=121	=121	=121	=121	=121	=121	=121	=121	=121	=121
!	!	!	!	!LO:TX:a:t=P:problem:mixed beam	!	!	!	!	!	!	!	!	!	!
8c#\L	.	16ee\LL	.	16aa\LL	.	8c#\L	-lei-	8ee\L	-lei-	4a/	.	4ee\	2ryy	2ryy
.	.	16ee\	.	16a/	.	.	.	.	.	.	.	.	.	.
8B\	.	16dd\	.	16aa\	.	8d\	.	8dd\	.	.	.	.	.	.
.	.	16dd\JJ	.	16a/JJ	.	.	.	.	.	.	.	.	.	.
!	!	!	!	!LO:TX:a:t=P:problem:mixed beam	!	!	!	!	!	!	!	!	!	!
8A\	.	16cc#\LL	.	16aa\LL	.	8e\	.	8cc#\	.	4r	.	4r	.	.
.	.	16cc#\	.	16a/	.	.	.	.	.	.	.	.	.	.
8G#X\J	.	16b\	.	16aa\	.	8d\J	.	8b\J	.	.	.	.	.	.
.	.	16b\JJ	.	16a/JJ	.	.	.	.	.	.	.	.	.	.
!LO:LB:g=original	!	!	!	!	!	!	!	!	!	!	!	!	!	!
=122	=122	=122	=122	=122	=122	=122	=122	=122	=122	=122	=122	=122	=122	=122
!	!	!	!	!LO:TX:a:t=P:problem:mixed beam	!	!	!	!	!	!	!	!	!	!
8A\L	.	4cc#\	.	8aa\L	.	4c#\	-son	4cc#\	-son	4a/	.	4ee\	2ryy	2ryy
8A\	.	.	.	8a/J	.	.	.	.	.	.	.	.	.	.
8A\	.	8a\	.	8aa\L	.	8r	.	8r	.	4r	.	4r	.	.
!	!	!	!	!LO:TX:a:t=P:problem:mixed beam	!	!	!	!	!	!	!	!	!	!
8cn\J	.	16ee\LL	.	16gg\L	.	8cn\	e-	8ee\	e-	.	.	.	.	.
.	.	16ee\JJ	.	16g/JJ	.	.	.	.	.	.	.	.	.	.
=123	=123	=123	=123	=123	=123	=123	=123	=123	=123	=123	=123	=123	=123	=123
!	!	!	!	!LO:TX:a:t=P:problem:mixed beam	!	!	!	!	!	!LO:N:vis=00	!	!LO:N:vis=00	!	!
8B\L	.	16dd\LL	.	16gg\LL	.	8B\L	-lei-	8dd\L	-lei-	0r	.	0r	2ryy	2ryy
.	.	16dd\	.	16g/	.	.	.	.	.	.	.	.	.	.
8A\	.	16ccn\	.	16gg\	.	8c#\	.	8ccn\	.	.	.	.	.	.
.	.	16cc\JJ	.	16g/JJ	.	.	.	.	.	.	.	.	.	.
!	!	!	!	!LO:TX:a:t=P:problem:mixed beam	!	!	!	!	!	!	!	!	!	!
8G\	.	16b\LL	.	16gg\LL	.	8d\	.	8b\	.	.	.	.	.	.
.	.	16b\	.	16g/	.	.	.	.	.	.	.	.	.	.
8F#\J	.	16a\	.	16gg\	.	8c#\J	.	8a\J	.	.	.	.	.	.
.	.	16a\JJ	.	16g/JJ	.	.	.	.	.	.	.	.	.	.
=124	=124	=124	=124	=124	=124	=124	=124	=124	=124	=124	=124	=124	=124	=124
!	!	!	!	!LO:TX:a:t=P:problem:mixed beam	!	!	!	!	!	!	!	!	!	!
8G\L	.	16b\LL	.	16gg\LL	.	8B\L	.	8b\L	-son	.	.	.	2ryy	2ryy
.	.	16b\	.	16g/	.	.	.	.	.	.	.	.	.	.
8A\	.	16cc#\	.	16gg\	.	8A\J	.	8cc#\J	.	.	.	.	.	.
.	.	16cc#\JJ	.	16g/JJ	.	.	.	.	.	.	.	.	.	.
!	!	!	!	!LO:TX:a:t=P:problem:mixed beam	!	!	!	!	!	!	!	!	!	!
8B\	.	16dd\LL	.	16gg\LL	.	8G/	-son	8dd\	e-	.	.	.	.	.
.	.	16dd\	.	16g/	.	.	.	.	.	.	.	.	.	.
8cn\J	.	16ee\	.	16gg\	.	8cn\	e	8ee\	.	.	.	.	.	.
.	.	16ee\JJ	.	16g/JJ	.	.	.	.	.	.	.	.	.	.
=125	=125	=125	=125	=125	=125	=125	=125	=125	=125	=125	=125	=125	=125	=125
!	!	!	!	!LO:TX:a:t=P:problem:mixed beam	!	!	!	!	!	!	!	!	!	!
8B\L	.	16dd\LL	.	16gg\LL	.	8B\L	-lei-	8dd\L	-lei-	.	.	.	2ryy	2ryy
.	.	16dd\	.	16g/	.	.	.	.	.	.	.	.	.	.
8A\	.	16cc#\	.	16gg\	.	8c#\	.	8cc#\	.	.	.	.	.	.
.	.	16cc#\JJ	.	16g/JJ	.	.	.	.	.	.	.	.	.	.
!	!	!	!	!LO:TX:a:t=P:problem:mixed beam	!	!	!	!	!	!	!	!	!	!
8G\	.	16b\LL	.	16gg\LL	.	8d\	.	8b\	.	.	.	.	.	.
.	.	16b\	.	16g/	.	.	.	.	.	.	.	.	.	.
8F#\J	.	16a\	.	16gg\	.	8c#\J	.	8a\J	.	.	.	.	.	.
.	.	16a\JJ	.	16g/JJ	.	.	.	.	.	.	.	.	.	.
=126	=126	=126	=126	=126	=126	=126	=126	=126	=126	=126	=126	=126	=126	=126
!	!	!	!	!LO:TX:a:t=P:problem:mixed beam	!	!	!	!	!	!	!	!	!	!
8G\L	.	8b\L	.	8gg\L	.	4B\	son	4b\	son	.	.	.	2ryy	2ryy
8G\	.	8g\J	.	8g/J	.	.	.	.	.	.	.	.	.	.
!	!	!	!	!LO:TX:a:t=P:problem:mixed beam	!	!	!	!	!	!	!	!	!	!
8G\	.	8g/L	.	8gg\L	.	8r	.	8r	.	.	.	.	.	.
8G\J	.	16b/L	.	16dd\L	.	8B\	e-	8dd\	e-	.	.	.	.	.
.	.	16b/JJ	.	16d/JJ	.	.	.	.	.	.	.	.	.	.
=127	=127	=127	=127	=127	=127	=127	=127	=127	=127	=127	=127	=127	=127	=127
!	!	!	!	!LO:TX:a:t=P:problem:mixed beam	!	!	!	!	!	!LO:N:vis=0	!	!LO:N:vis=0	!	!
8F#\L	.	16a/LL	.	16dd\LL	.	8A/L	-lei-	2dd\	-lei-	1r	.	1r	2ryy	2ryy
.	.	16a/	.	16d/	.	.	.	.	.	.	.	.	.	.
8E\	.	16g/	.	16dd\	.	8G/	.	.	.	.	.	.	.	.
.	.	16g/JJ	.	16d/JJ	.	.	.	.	.	.	.	.	.	.
!	!	!	!	!LO:TX:a:t=P:problem:mixed beam	!	!	!	!	!	!	!	!	!	!
8D\	.	16f#/LL	.	16dd\LL	.	8F#/	.	.	.	.	.	.	.	.
.	.	16f#/	.	16d/	.	.	.	.	.	.	.	.	.	.
8C#X\J	.	16e/	.	16dd\	.	8E/J	.	.	.	.	.	.	.	.
.	.	16e/JJ	.	16d/JJ	.	.	.	.	.	.	.	.	.	.
!	!	!	!	!LO:LB:g=original	!	!LO:LB:g=original	!	!	!	!	!	!	!	!
=128	=128	=128	=128	=128	=128	=128	=128	=128	=128	=128	=128	=128	=128	=128
!	!	!	!	!LO:TX:a:t=P:problem:mixed beam	!	!	!	!	!	!	!	!	!	!
8D\L	.	16f#/LL	.	16dd\LL	.	8F#/L	.	4dd\	-son	.	.	.	2ryy	2ryy
.	.	16f#/	.	16d/	.	.	.	.	.	.	.	.	.	.
8E\	.	16g/	.	16dd\	.	8G/J	.	.	.	.	.	.	.	.
.	.	16g/JJ	.	16d/JJ	.	.	.	.	.	.	.	.	.	.
!	!	!	!	!LO:TX:a:t=P:problem:mixed beam	!	!	!	!	!	!	!	!	!	!
8F#\	.	16a/LL	.	16dd\LL	.	8A\	-son	4dd\	e-	.	.	.	.	.
.	.	16a/	.	16d/	.	.	.	.	.	.	.	.	.	.
8G\J	.	16b/	.	16dd\	.	8B\	e-	.	.	.	.	.	.	.
.	.	16b/JJ	.	16d/JJ	.	.	.	.	.	.	.	.	.	.
!	!	!LO:LB:g=original	!	!	!	!	!	!LO:LB:g=original	!	!	!	!	!	!
=129	=129	=129	=129	=129	=129	=129	=129	=129	=129	=129	=129	=129	=129	=129
!	!	!	!	!LO:TX:a:t=P:problem:mixed beam	!	!	!	!	!	!	!	!	!	!
8F#\L	.	16a/LL	.	16dd\LL	.	8A\L	-lei-	2dd\	-lei-	2r	.	2r	2ryy	2ryy
.	.	16a/	.	16d/	.	.	.	.	.	.	.	.	.	.
8E\	.	16g/	.	16dd\	.	8G\	.	.	.	.	.	.	.	.
.	.	16g/JJ	.	16d/JJ	.	.	.	.	.	.	.	.	.	.
!	!	!	!	!LO:TX:a:t=P:problem:mixed beam	!	!	!	!	!	!	!	!	!	!
8D\	.	16f#/LL	.	16dd\LL	.	8F#\	.	.	.	.	.	.	.	.
.	.	16f#/	.	16d/	.	.	.	.	.	.	.	.	.	.
8C#\J	.	16e/	.	16dd\	.	8E\J	.	.	.	.	.	.	.	.
.	.	16e/JJ	.	16d/JJ	.	.	.	.	.	.	.	.	.	.
=130	=130	=130	=130	=130	=130	=130	=130	=130	=130	=130	=130	=130	=130	=130
8D\L	.	16f#/LL	.	16dd\LL	.	4F#/	-son	4dd\	-son	8dd\L	.	8ff#\L	2ryy	2ryy
.	.	16f#/	.	16dd\	.	.	.	.	.	.	.	.	.	.
8E\	.	16f#/	.	16dd\	.	.	.	.	.	16dd\L	.	16ff#\L	.	.
.	.	16f#/JJ	.	16dd\JJ	.	.	.	.	.	16dd\JJ	.	16ff#\JJ	.	.
8F#\	.	16ff#\LL	.	16ddd\LL	.	4A/	e-	4dd\	e-	8dd\L	.	8ff#\L	.	.
.	.	16ff#\	.	16ddd\	.	.	.	.	.	.	.	.	.	.
8G\J	.	16ff#\	.	16ddd\	.	.	.	.	.	8dd\J	.	8ff#\J	.	.
.	.	16ff#\JJ	.	16ddd\JJ	.	.	.	.	.	.	.	.	.	.
=131	=131	=131	=131	=131	=131	=131	=131	=131	=131	=131	=131	=131	=131	=131
4A\	.	16ee\LL	.	16ccc#\LL	.	2c#\	-lei	2ee\	-lei	8a/L	.	8ee\L	2ryy	2ryy
.	.	16ee\	.	16ccc#\	.	.	.	.	.	.	.	.	.	.
.	.	16ee\	.	16ccc#\	.	.	.	.	.	16a/L	.	16ee\L	.	.
.	.	16ee\JJ	.	16ccc#\JJ	.	.	.	.	.	16a/JJ	.	16ee\JJ	.	.
4AA/	.	16ee\LL	.	16ccc#\LL	.	.	.	.	.	8a/L	.	8ee\L	.	.
.	.	16ee\	.	16ccc#\	.	.	.	.	.	.	.	.	.	.
.	.	16ee\	.	16ccc#\	.	.	.	.	.	8a/J	.	8ee\J	.	.
.	.	16ee\JJ	.	16ccc#\JJ	.	.	.	.	.	.	.	.	.	.
=132	=132	=132	=132	=132	=132	=132	=132	=132	=132	=132	=132	=132	=132	=132
4D/	.	16ff#\LL	.	16ddd\LL	.	4d\	-son	4ff#\	-son	8dd\L	.	8ff#\L	2ryy	2ryy
.	.	16ff#\	.	16ddd\	.	.	.	.	.	.	.	.	.	.
.	.	16ff#\	.	16ddd\	.	.	.	.	.	16dd\L	.	16ff#\L	.	.
.	.	16ff#\JJ	.	16ddd\JJ	.	.	.	.	.	16dd\J	.	16ff#\J	.	.
4d\	.	16ff#\LL	.	16ddd\LL	.	4d\	e-	4ff#\	e-	8dd\	.	8ff#\	.	.
.	.	16ff#\	.	16ddd\	.	.	.	.	.	.	.	.	.	.
.	.	16ff#\	.	16ddd\	.	.	.	.	.	8dd\J	.	8ff#\J	.	.
.	.	16ff#\JJ	.	16ddd\JJ	.	.	.	.	.	.	.	.	.	.
=133	=133	=133	=133	=133	=133	=133	=133	=133	=133	=133	=133	=133	=133	=133
4d\	.	16ff#\LL	.	16ddd\LL	.	2d\	-lei-	2ff#\	-lei-	8dd\L	.	8ff#\L	2ryy	2ryy
.	.	16ff#\	.	16ddd\	.	.	.	.	.	.	.	.	.	.
.	.	16ff#\	.	16ddd\	.	.	.	.	.	8dd\	.	8ff#\	.	.
.	.	16ff#\JJ	.	16ddd\JJ	.	.	.	.	.	.	.	.	.	.
4D/	.	16ff#\LL	.	16ddd\LL	.	.	.	.	.	8dd\	.	8ff#\	.	.
.	.	16ff#\	.	16ddd\	.	.	.	.	.	.	.	.	.	.
.	.	16ff#\	.	16ddd\	.	.	.	.	.	8dd\J	.	8ff#\J	.	.
.	.	16ff#\JJ	.	16ddd\JJ	.	.	.	.	.	.	.	.	.	.
=134	=134	=134	=134	=134	=134	=134	=134	=134	=134	=134	=134	=134	=134	=134
4A\	.	4ee\	.	4ccc#\	.	4c#\	-son	4ee\	-son	4a/	.	4ee\	2ryy	2ryy
4r	.	4r	.	4r	.	4r	.	4r	.	4r	.	4r	.	.
=135	=135	=135	=135	=135	=135	=135	=135	=135	=135	=135	=135	=135	=135	=135
4A\	.	4ee 4cc# 4a/	.	4ee 4cc# 4a/	.	4e\	ki-	4cc#\	e-	4a/	.	4ee\	2ryy	2ryy
4AA/	.	4ee 4cc# 4a/	.	4ee 4cc# 4a/	.	4e\	-ri-	4cc#\	-lei-	4a/	.	4ee\	.	.
!	!	!	!	!	!	!	!	!	!	!	!	!	!	!LO:LB:g=original
=136	=136	=136	=136	=136	=136	=136	=136	=136	=136	=136	=136	=136	=136	=136
4AA/	.	4ee 4cc# 4a/	.	4ee 4cc# 4a/	.	4e\	-e	4cc#\	-son	4a/	.	4ee\	2ryy	2ryy
4r	.	8r	.	8r	.	4r	.	4r	.	4r	.	4r	.	.
.	.	8a/	.	8a/	.	.	.	.	.	.	.	.	.	.
=137	=137	=137	=137	=137	=137	=137	=137	=137	=137	=137	=137	=137	=137	=137
!	!	!	!	!	!	!LO:N:vis=0	!	!LO:N:vis=0	!	!	!	!	!	!
8AA/L	.	(8a\L	.	(8cc#\L	.	1r	.	1r	.	8a/L	.	8a/L	2ryy	2ryy
8AA/	.	8cc#\)	.	8ee\)	.	.	.	.	.	8a/	.	8a/	.	.
8AA/	.	(8b\	.	(8dd\	.	.	.	.	.	8a/	.	8a/	.	.
8AA/J	.	8dd\J)	.	8ff#\J)	.	.	.	.	.	8a/J	.	8a/J	.	.
=138	=138	=138	=138	=138	=138	=138	=138	=138	=138	=138	=138	=138	=138	=138
8AA/L	.	8cc#\	.	8ee\	.	.	.	.	.	8a/L	.	8a/L	2ryy	2ryy
8AA/	.	4cc#\	.	4aa\	.	.	.	.	.	8a/	.	8a/	.	.
8AA/	.	.	.	.	.	.	.	.	.	8a/	.	8a/	.	.
8AA/J	.	8a/	.	8a/	.	.	.	.	.	8a/J	.	8a/J	.	.
=139	=139	=139	=139	=139	=139	=139	=139	=139	=139	=139	=139	=139	=139	=139
8AA/L	.	8a\L	.	(8cc#\L	.	2r	.	2r	.	8a/L	.	8a/L	2ryy	2ryy
8AA/	.	8cc#\	.	8ee\)	.	.	.	.	.	8a/	.	8a/	.	.
8AA/	.	8b\	.	(8dd\	.	.	.	.	.	8a/	.	8a/	.	.
8AA/J	.	8dd\J	.	8ff#\J)	.	.	.	.	.	8a/J	.	8a/J	.	.
!	!	!	!	!LO:LB:g=original	!	!	!	!	!	!	!	!	!	!
=140	=140	=140	=140	=140	=140	=140	=140	=140	=140	=140	=140	=140	=140	=140
8AA/L	.	8cc#\	.	8ee\	.	4r	.	4r	.	8a/L	.	8a/L	2ryy	2ryy
8AA/	.	4cc#\	.	4aa\	.	.	.	.	.	8a/	.	8a/	.	.
8AA/	.	.	.	.	.	8r	.	8r	.	8a/	.	8a/	.	.
8C#/J	.	8cc#\	.	8ee\	.	8c#\	e-	8ee\	e-	8a/J	.	8a/J	.	.
=141	=141	=141	=141	=141	=141	=141	=141	=141	=141	=141	=141	=141	=141	=141
4D\	.	4b\	.	4dd\	.	4B\	-lei-	4dd\	-lei-	4ee\	.	4ee\	2ryy	2ryy
4E\	.	4g#X/	.	4b\	.	4G#X/	.	4b\	-son	4ee\	.	4ee\	.	.
!LO:LB:g=original	!	!LO:LB:g=original	!	!	!	!	!	!	!	!	!	!	!	!
=142	=142	=142	=142	=142	=142	=142	=142	=142	=142	=142	=142	=142	=142	=142
4AA/	.	4a/	.	4cc#\	.	4A\	-son	4cc#\	e-	4a/	.	4ee\	2ryy	2ryy
4A\	.	4cc#\	.	4ee\	.	4A\	e-	4cc#\	.	4ee\	.	4ee\	.	.
=143	=143	=143	=143	=143	=143	=143	=143	=143	=143	=143	=143	=143	=143	=143
8AA/L	.	16cc#\LL	.	16aa\LL	.	2A\	-lei-	2cc#\	-lei-	8a/L	.	8ee\L	2ryy	2ryy
.	.	16cc#\	.	16aa\	.	.	.	.	.	.	.	.	.	.
8BB/	.	16cc#\	.	16aa\	.	.	.	.	.	16a/L	.	16ee\L	.	.
.	.	16cc#\JJ	.	16aa\JJ	.	.	.	.	.	16a/JJ	.	16ee\JJ	.	.
8C#/	.	16cc#\LL	.	16aa\LL	.	.	.	.	.	8a/L	.	8ee\L	.	.
.	.	16cc#\	.	16aa\	.	.	.	.	.	.	.	.	.	.
8D/J	.	16cc#\	.	16aa\	.	.	.	.	.	8a/J	.	8ee\J	.	.
.	.	16cc#\JJ	.	16aa\JJ	.	.	.	.	.	.	.	.	.	.
=144	=144	=144	=144	=144	=144	=144	=144	=144	=144	=144	=144	=144	=144	=144
8E\L	.	8b\L	.	8gg#X\L	.	4G#X/	-son	4b\	-son	4ee\	.	4ee\	2ryy	2ryy
8E\	.	8g#X\	.	8ee\	.	.	.	.	.	.	.	.	.	.
8G#X\	.	8b\	.	8gg#\	.	4G#/	e-	4b\	e-	4r	.	4r	.	.
8E\J	.	8g#\J	.	8ee\J	.	.	.	.	.	.	.	.	.	.
!	!	!	!	!	!	!LO:LB:g=original	!	!	!	!LO:LB:g=original	!	!	!	!
=145	=145	=145	=145	=145	=145	=145	=145	=145	=145	=145	=145	=145	=145	=145
8AA/L	.	16cc#\LL	.	16aa\LL	.	2A\	-lei-	2cc#\	-lei-	8a/L	.	8ee\L	2ryy	2ryy
.	.	16cc#\	.	16aa\	.	.	.	.	.	.	.	.	.	.
8BB/	.	16cc#\	.	16aa\	.	.	.	.	.	16a/L	.	16ee\L	.	.
.	.	16cc#\JJ	.	16aa\JJ	.	.	.	.	.	16a/JJ	.	16ee\JJ	.	.
8C#/	.	16cc#\LL	.	16aa\LL	.	.	.	.	.	8a/L	.	8ee\L	.	.
.	.	16cc#\	.	16aa\	.	.	.	.	.	.	.	.	.	.
8D/J	.	16cc#\	.	16aa\	.	.	.	.	.	8a/J	.	8ee\J	.	.
.	.	16cc#\JJ	.	16aa\JJ	.	.	.	.	.	.	.	.	.	.
!	!	!	!	!	!	!	!	!LO:LB:g=original	!	!	!	!	!	!
=146	=146	=146	=146	=146	=146	=146	=146	=146	=146	=146	=146	=146	=146	=146
4E\	.	4b\	.	4gg#X\	.	4G#X/	-son	4b\	-son	4ee\	.	4ee\	2ryy	2ryy
8E\L	.	16dd\LL	.	16gg#\LL	.	4B\	e-	4dd\	e-	4r	.	4r	.	.
.	.	16dd\	.	16gg#\	.	.	.	.	.	.	.	.	.	.
8F#\J	.	16dd\	.	16gg#\	.	.	.	.	.	.	.	.	.	.
.	.	16dd\JJ	.	16gg#\JJ	.	.	.	.	.	.	.	.	.	.
=147	=147	=147	=147	=147	=147	=147	=147	=147	=147	=147	=147	=147	=147	=147
8G#X\L	.	16dd\LL	.	16gg\LL	.	2B\	-lei-	2dd\	-lei-	8ee\L	.	8ee\L	2ryy	2ryy
.	.	16dd\	.	16gg\	.	.	.	.	.	.	.	.	.	.
8A\	.	16dd\	.	16gg\	.	.	.	.	.	16ee\L	.	16ee\L	.	.
.	.	16dd\JJ	.	16gg\JJ	.	.	.	.	.	16ee\JJ	.	16ee\JJ	.	.
8B\	.	16dd\LL	.	16gg\LL	.	.	.	.	.	8ee\L	.	8ee\L	.	.
.	.	16dd\	.	16gg\	.	.	.	.	.	.	.	.	.	.
8E\J	.	16dd\	.	16gg\	.	.	.	.	.	8ee\J	.	8ee\J	.	.
.	.	16dd\JJ	.	16gg\JJ	.	.	.	.	.	.	.	.	.	.
=148	=148	=148	=148	=148	=148	=148	=148	=148	=148	=148	=148	=148	=148	=148
!	!	!	!	!LO:TX:a:t=P:problem:mixed beam	!	!	!	!	!	!	!	!	!	!
4A\	.	4cc#\	.	8aa\L	.	4A\	-son	4cc#\	-son	4a/	.	4ee\	2ryy	2ryy
.	.	.	.	8a/J	.	.	.	.	.	.	.	.	.	.
!	!	!	!	!LO:TX:a:t=P:problem:mixed beam	!	!	!	!	!	!LO:N:vis=4	!	!	!	!
4A\	.	4cc#\	.	16ee\LL	.	4A\	e-	4cc#\	e-	8r	.	4r	.	.
.	.	.	.	16e/	.	.	.	.	.	.	.	.	.	.
!	!	!	!	!	!	!	!	!	!	!LO:N:vis=2	!	!	!	!
.	.	.	.	16ee\	.	.	.	.	.	8r	.	.	.	.
.	.	.	.	16e/JJ	.	.	.	.	.	.	.	.	.	.
=149	=149	=149	=149	=149	=149	=149	=149	=149	=149	=149	=149	=149	=149	=149
!	!	!	!	!LO:TX:a:t=P:problem:mixed beam	!	!	!	!	!	!LO:N:vis=00	!	!LO:N:vis=00	!	!
8G#X\L	.	16b/LL	.	16ee\LL	.	8G#X\L	-lei-	8b\L	-lei-	0r	.	0r	2ryy	2ryy
.	.	16b/	.	16e/	.	.	.	.	.	.	.	.	.	.
8F#\	.	16a/	.	16ee\	.	8A\	.	8a\J	.	.	.	.	.	.
.	.	16a/JJ	.	16e/JJ	.	.	.	.	.	.	.	.	.	.
!	!	!	!	!LO:TX:a:t=P:problem:mixed beam	!	!	!	!	!	!	!	!	!	!
8E\	.	16g#X/LL	.	16ee\LL	.	8B\	.	8g#X\	-son	.	.	.	.	.
.	.	16g#/	.	16e/	.	.	.	.	.	.	.	.	.	.
8D#X\J	.	16f#/	.	16ee\	.	8A\J	.	8f#/	e-	.	.	.	.	.
.	.	16f#/JJ	.	16e/JJ	.	.	.	.	.	.	.	.	.	.
=150	=150	=150	=150	=150	=150	=150	=150	=150	=150	=150	=150	=150	=150	=150
!	!	!	!	!LO:TX:a:t=P:problem:mixed beam	!	!	!	!	!	!	!	!	!	!
8E\L	.	16g/LL	.	16ee\LL	.	8G#X/L	.	8g#X\L	-lei-	.	.	.	2ryy	2ryy
.	.	16g/	.	16e/	.	.	.	.	.	.	.	.	.	.
8F#\	.	16a/	.	16ee\	.	8F#/J	.	8a\J	.	.	.	.	.	.
.	.	16a/JJ	.	16e/JJ	.	.	.	.	.	.	.	.	.	.
!	!	!	!	!LO:TX:a:t=P:problem:mixed beam	!	!	!	!	!	!	!	!	!	!
8G#X\	.	16b\LL	.	16ee\LL	.	8E\	-son	8b\	-son	.	.	.	.	.
.	.	16b\	.	16e/	.	.	.	.	.	.	.	.	.	.
8A\J	.	16cc#\	.	16ee\	.	8A\	e-	8cc#\	e-	.	.	.	.	.
.	.	16cc#\JJ	.	16e\JJ	.	.	.	.	.	.	.	.	.	.
=151	=151	=151	=151	=151	=151	=151	=151	=151	=151	=151	=151	=151	=151	=151
!	!	!	!	!LO:TX:a:t=P:problem:mixed beam	!	!	!	!	!	!	!	!	!	!
8G#X\L	.	16b\LL	.	16ee\LL	.	8G#X\L	-lei-	8b\L	-lei-	.	.	.	2ryy	2ryy
.	.	16b\	.	16e/	.	.	.	.	.	.	.	.	.	.
8F#\	.	16a\	.	16ee\	.	8A\	.	8a\	.	.	.	.	.	.
.	.	16a\JJ	.	16e/JJ	.	.	.	.	.	.	.	.	.	.
!	!	!	!	!LO:TX:a:t=P:problem:mixed beam	!	!	!	!	!	!	!	!	!	!
8E\	.	16g#X/LL	.	16ee\LL	.	8B\	.	8g#X\	.	.	.	.	.	.
.	.	16g#/	.	16e/	.	.	.	.	.	.	.	.	.	.
8D#X\J	.	16f#/	.	16ee\	.	8A\J	.	8f#\J	.	.	.	.	.	.
.	.	16f#/JJ	.	16e/JJ	.	.	.	.	.	.	.	.	.	.
=152	=152	=152	=152	=152	=152	=152	=152	=152	=152	=152	=152	=152	=152	=152
!	!	!	!	!LO:TX:a:t=P:problem:mixed beam	!	!	!	!	!	!	!	!	!	!
8E\L	.	8g/L	.	8ee\L	.	8G#X/L	.	4g\	-son	.	.	.	2ryy	2ryy
8E\	.	8g/J	.	8e\J	.	8F#/J	.	.	.	.	.	.	.	.
!	!	!	!	!LO:TX:a:t=P:problem:mixed beam	!	!	!	!	!	!	!	!	!	!
8E\	.	8g/L	.	16dd\LL	.	8E/	-son	4dd\	e-	.	.	.	.	.
.	.	.	.	16d/	.	.	.	.	.	.	.	.	.	.
8Gn\J	.	16b/L	.	16dd\	.	8B\	e-	.	.	.	.	.	.	.
.	.	16b/JJ	.	16d/JJ	.	.	.	.	.	.	.	.	.	.
!	!	!LO:LB:g=original	!	!	!	!	!	!	!	!	!	!	!	!
=153	=153	=153	=153	=153	=153	=153	=153	=153	=153	=153	=153	=153	=153	=153
!	!	!	!	!LO:TX:a:t=P:problem:mixed beam	!	!	!	!	!	!LO:N:vis=0	!	!LO:N:vis=0	!	!
8F#\L	.	16a/LL	.	16dd\LL	.	8A\L	.	2dd\	-lei-	1r	.	1r	2ryy	2ryy
.	.	16a/	.	16d/	.	.	.	.	.	.	.	.	.	.
8E\	.	16gn/	.	16dd\	.	8G\	.	.	.	.	.	.	.	.
.	.	16g/JJ	.	16d/JJ	.	.	.	.	.	.	.	.	.	.
!	!	!	!	!LO:TX:a:t=P:problem:mixed beam	!	!	!	!	!	!	!	!	!	!
8D\	.	16f#/LL	.	16dd\LL	.	8F#\	.	.	.	.	.	.	.	.
.	.	16f#/	.	16d/	.	.	.	.	.	.	.	.	.	.
8C#\J	.	16e/	.	16dd\	.	8E\J	.	.	.	.	.	.	.	.
.	.	16e/JJ	.	16d/JJ	.	.	.	.	.	.	.	.	.	.
!	!	!	!	!LO:LB:g=original	!	!	!	!	!	!	!	!	!	!
=154	=154	=154	=154	=154	=154	=154	=154	=154	=154	=154	=154	=154	=154	=154
!	!	!	!	!LO:TX:a:t=P:problem:mixed beam	!	!	!	!	!	!	!	!	!	!
8D\L	.	16f#/LL	.	16dd\LL	.	8F#/L	.	4dd\	-son	.	.	.	2ryy	2ryy
.	.	16f#/	.	16d/	.	.	.	.	.	.	.	.	.	.
8E\	.	16g/	.	16dd\	.	8G/J	.	.	.	.	.	.	.	.
.	.	16g/JJ	.	16d/JJ	.	.	.	.	.	.	.	.	.	.
!	!	!	!	!LO:TX:a:t=P:problem:mixed beam	!	!	!	!	!	!	!	!	!	!
8F#\	.	16a/LL	.	16dd\LL	.	8A\	son	4dd\	e-	.	.	.	.	.
.	.	16a/	.	16d/	.	.	.	.	.	.	.	.	.	.
8G\J	.	16b/	.	16dd\	.	8B\	e-	.	.	.	.	.	.	.
.	.	16b/JJ	.	16d/JJ	.	.	.	.	.	.	.	.	.	.
=155	=155	=155	=155	=155	=155	=155	=155	=155	=155	=155	=155	=155	=155	=155
!	!	!	!	!LO:TX:t=P:problem:w źródle takt 155 zapisany jako repetycja taktu 154	!	!	!	!	!	!	!	!	!	!
!	!	!	!	!LO:TX:a:t=P:problem:mixed beam	!	!	!	!	!	!	!	!	!	!
8F#\L	.	16a/LL	.	16dd\LL	.	8A\L	-lei	2dd\	-lei-	2r	.	2r	2ryy	2ryy
.	.	16a/	.	16d/	.	.	.	.	.	.	.	.	.	.
!	!	!	!	!LO:TX:a:t=bis	!	!	!	!	!	!	!	!	!	!
8E\	.	16g/	.	16dd\	.	8G\	.	.	.	.	.	.	.	.
.	.	16g/JJ	.	16d\JJ	.	.	.	.	.	.	.	.	.	.
!	!	!	!	!LO:TX:a:t=P:problem:mixed beam	!	!	!	!	!	!	!	!	!	!
8D\	.	16f#/LL	.	16dd\LL	.	8F#\	.	.	.	.	.	.	.	.
.	.	16f#/	.	16d/	.	.	.	.	.	.	.	.	.	.
8C#\J	.	16e/	.	16dd\	.	8E\J	.	.	.	.	.	.	.	.
.	.	16e/JJ	.	16d/JJ	.	.	.	.	.	.	.	.	.	.
=156	=156	=156	=156	=156	=156	=156	=156	=156	=156	=156	=156	=156	=156	=156
8D\L	.	16f#/LL	.	16dd\LL	.	4F#/	-son	4dd\	-son	8r	.	8r	2ryy	2ryy
!	!	!LO:TX:a:t=P:problem:mixed beam	!	!	!	!	!	!	!	!	!	!	!	!
.	.	16dd\	.	16ff#\	.	.	.	.	.	.	.	.	.	.
8E\	.	16dd\	.	16ff#\	.	.	.	.	.	8dd\L	.	8ff#\L	.	.
.	.	16dd\JJ	.	16ff#\JJ	.	.	.	.	.	.	.	.	.	.
8F#\	.	16dd\LL	.	16ff#\LL	.	4d\	e-	4ff#\	e-	8dd\	.	8ff#\	.	.
.	.	16dd\	.	16ff#\	.	.	.	.	.	.	.	.	.	.
8G\J	.	16dd\	.	16ff#\	.	.	.	.	.	8dd\J	.	8ff#\J	.	.
.	.	16dd\JJ	.	16ff#\JJ	.	.	.	.	.	.	.	.	.	.
=157	=157	=157	=157	=157	=157	=157	=157	=157	=157	=157	=157	=157	=157	=157
8A\L	.	16cc#\LL	.	16ee\LL	.	4c#\	-lei-	4ee\	-lei-	4a/	.	4ee\	2ryy	2ryy
.	.	16cc#\	.	16ee\	.	.	.	.	.	.	.	.	.	.
8G\	.	16cc#\	.	16ee\	.	.	.	.	.	.	.	.	.	.
.	.	16cc#\JJ	.	16ee\JJ	.	.	.	.	.	.	.	.	.	.
8F#\	.	16dd\LL	.	16ff#\LL	.	8d\	-son	8ff#\	.	4ee\	.	4ff#\	.	.
.	.	16dd\	.	16ff#\	.	.	.	.	.	.	.	.	.	.
8G\J	.	16dd\	.	16ff#\	.	8d\	-e-	8ff#\	-son	.	.	.	.	.
.	.	16dd\JJ	.	16ff#\JJ	.	.	.	.	.	.	.	.	.	.
!	!	!	!	!	!	!LO:LB:g=original	!	!LO:LB:g=original	!	!	!	!	!	!
=158	=158	=158	=158	=158	=158	=158	=158	=158	=158	=158	=158	=158	=158	=158
4A\	.	4cc#\	.	4ee\	.	2c#\	-lei-	2ee\	e-	4a/	.	4ee\	2ryy	2ryy
4AA/	.	4cc#\	.	4ee\	.	.	.	.	.	4a/	.	4ee\	.	.
!	!	!	!	!	!	!	!	!	!	!	!	!LO:LB:g=original	!	!
=159	=159	=159	=159	=159	=159	=159	=159	=159	=159	=159	=159	=159	=159	=159
!LO:TX:a:t=P:problem:mixed beam	!	!	!	!	!	!	!	!	!	!	!	!	!	!
8D/L	.	4dd\	.	4ff#\	.	8d\	-son	4ff#\	-lei-	4dd\	.	4ff#\	2ryy	2ryy
16d\L	.	.	.	.	.	16f#\LL	e-	.	.	.	.	.	.	.
16c#\JJ	.	.	.	.	.	16e\JJ	.	.	.	.	.	.	.	.
8B\L	.	4r	.	4r	.	8d\L	-lei	8r	.	4r	.	4r	.	.
8A\J	.	.	.	.	.	8B\J	.	8dd\	-son	.	.	.	.	.
=160	=160	=160	=160	=160	=160	=160	=160	=160	=160	=160	=160	=160	=160	=160
8G\L	.	8r	.	8r	.	8B\L	.	2dd\	e-	4dd\	.	4ff#\	2ryy	2ryy
16B\L	.	16ddd\LL	.	16ddd\LL	.	16d\L	.	.	.	.	.	.	.	.
16A\JJ	.	16ccc#\JJ	.	16ccc#\JJ	.	16c#\JJ	.	.	.	.	.	.	.	.
8G\L	.	8bb\L	.	8bb\L	.	8B\L	.	.	.	4r	.	4r	.	.
8F#\J	.	8aa\J	.	8aa\J	.	8A\J	.	.	.	.	.	.	.	.
!LO:LB:g=original	!	!	!	!	!	!	!	!	!	!	!	!	!	!
=161	=161	=161	=161	=161	=161	=161	=161	=161	=161	=161	=161	=161	=161	=161
8E\L	.	8gg\L	.	8gg\L	.	8G\L	.	2dd\	-lei-	4dd\	.	4ff#\	2ryy	2ryy
16G\L	.	16bb\L	.	16bb\L	.	16B\L	.	.	.	.	.	.	.	.
16F#\JJ	.	16aa\JJ	.	16aa\JJ	.	16A\JJ	.	.	.	.	.	.	.	.
8E\L	.	8gg\L	.	8gg\L	.	8G/L	.	.	.	4r	.	4r	.	.
8D\J	.	8ff#\J	.	8ff#\J	.	8F#/J	.	.	.	.	.	.	.	.
=162	=162	=162	=162	=162	=162	=162	=162	=162	=162	=162	=162	=162	=162	=162
4A\	.	4ee 4cc# 4a/	.	4ee 4cc# 4a/	.	4c#\	-son	4ee\	-son	4a/	.	4ee\	2ryy	2ryy
8F#\L	.	4ff# 4a 4d/	.	4ff# 4a 4d/	.	4d\	e-	4ff#\	e-	4ee\	.	4ff#\	.	.
8G\J	.	.	.	.	.	.	.	.	.	.	.	.	.	.
=163	=163	=163	=163	=163	=163	=163	=163	=163	=163	=163	=163	=163	=163	=163
4A\	.	4ee 4cc# 4a/	.	4ee 4cc# 4a/	.	2c#\	-lei-	2ee\	-lei-	4a/	.	4ee\	2ryy	2ryy
4AA/	.	4ee 4cc# 4a/	.	4ee 4cc# 4a/	.	.	.	.	.	4a/	.	4ee\	.	.
=164	=164	=164	=164	=164	=164	=164	=164	=164	=164	=164	=164	=164	=164	=164
4D/	.	4ff# 4a 4d/	.	4ff# 4a 4d/	.	4d\	-son	4dd\	-son	4dd\	.	4ff#\	2ryy	2ryy
4d\	.	4a/	.	4ff#\	.	4d\	e-	4ff#\	e-	4dd\	.	4ff#\	.	.
!	!	!LO:LB:g=original	!	!	!	!	!	!	!	!	!	!	!	!
=165	=165	=165	=165	=165	=165	=165	=165	=165	=165	=165	=165	=165	=165	=165
8D\L	.	16dd\LL	.	16ff#\LL	.	2d\	-lei-	2ff#\	-lei-	8dd\L	.	8ff#\L	2ryy	2ryy
.	.	16cc#\	.	16ee\	.	.	.	.	.	.	.	.	.	.
8E\	.	16dd\	.	16ff#\	.	.	.	.	.	16dd\L	.	16ff#\L	.	.
.	.	16ff#\JJ	.	16ddd\JJ	.	.	.	.	.	16dd\JJ	.	16ff#\JJ	.	.
8F#\	.	16dd\LL	.	16ff#\LL	.	.	.	.	.	8dd\L	.	8ff#\L	.	.
.	.	16cc#\	.	16ee\	.	.	.	.	.	.	.	.	.	.
8G\J	.	16dd\	.	16ff#\	.	.	.	.	.	8dd\J	.	8ff#\J	.	.
.	.	16ff#\JJ	.	16ddd\JJ	.	.	.	.	.	.	.	.	.	.
=166	=166	=166	=166	=166	=166	=166	=166	=166	=166	=166	=166	=166	=166	=166
4A\	.	4cc#\	.	4ee\	.	4c#\	-son	4ee\	-son	4a/	.	4ee\	2ryy	2ryy
4AA/	.	4cc#\	.	4ee\	.	4c#\	e-	4ee\	e-	4a/	.	4ee\	.	.
=167	=167	=167	=167	=167	=167	=167	=167	=167	=167	=167	=167	=167	=167	=167
8D\L	.	16dd\LL	.	16ff#\LL	.	2d\	-lei-	2ff#\	-lei-	8dd\L	.	8ff#\L	2ryy	2ryy
.	.	16cc#\	.	16ee\	.	.	.	.	.	.	.	.	.	.
8E\	.	16dd\	.	16ff#\	.	.	.	.	.	16dd\L	.	16ff#\L	.	.
.	.	16ff#\JJ	.	16ddd\JJ	.	.	.	.	.	16dd\JJ	.	16ff#\JJ	.	.
8F#\	.	16dd\LL	.	16ff#\LL	.	.	.	.	.	8dd\L	.	8ff#\L	.	.
.	.	16cc#\	.	16ee\	.	.	.	.	.	.	.	.	.	.
8G\J	.	16dd\	.	16ff#\	.	.	.	.	.	8dd\J	.	8ff#\J	.	.
.	.	16ff#\JJ	.	16ddd\JJ	.	.	.	.	.	.	.	.	.	.
=168	=168	=168	=168	=168	=168	=168	=168	=168	=168	=168	=168	=168	=168	=168
4A\	.	4cc#\	.	8ee\L	.	4c#\	-son	4ee\	-son	4a/	.	4ee\	2ryy	2ryy
.	.	.	.	8cc#\J	.	.	.	.	.	.	.	.	.	.
8A\L	.	16ee\LL	.	16aa\LL	.	4c#\	e-	4ee\	e-	8a/L	.	8ee\L	.	.
.	.	16ee\	.	16aa\	.	.	.	.	.	.	.	.	.	.
8G#X\J	.	16ee\	.	16aa\	.	.	.	.	.	8a/J	.	8ee\J	.	.
.	.	16ee\JJ	.	16aa\JJ	.	.	.	.	.	.	.	.	.	.
!	!	!	!	!LO:LB:g=original	!	!	!	!	!	!LO:LB:g=original	!	!	!	!
=169	=169	=169	=169	=169	=169	=169	=169	=169	=169	=169	=169	=169	=169	=169
8A\L	.	16ee\LL	.	16aa\LL	.	4c#\	-lei	4ee\	-lei	4a/	.	4ee\	2ryy	2ryy
.	.	16ee\	.	16aa\	.	.	.	.	.	.	.	.	.	.
8B\	.	16ee\	.	16aa\	.	.	.	.	.	.	.	.	.	.
.	.	16ee\JJ	.	16aa\JJ	.	.	.	.	.	.	.	.	.	.
8c#\	.	16ee\LL	.	16aa\LL	.	8c#\	son	8ee\	son	8a/L	.	8ee\L	.	.
.	.	16ee\	.	16aa\	.	.	.	.	.	.	.	.	.	.
8d\J	.	16ee\	.	16aa\	.	8c#\	e-	8ee\	e-	8a/J	.	8ee\J	.	.
.	.	16ee\JJ	.	16aa\JJ	.	.	.	.	.	.	.	.	.	.
=170	=170	=170	=170	=170	=170	=170	=170	=170	=170	=170	=170	=170	=170	=170
8e\L	.	16gg\LL	.	16ccc#\LL	.	2e\	-lei-	2gg\	-lei-	8a/L	.	8ee\L	2ryy	2ryy
.	.	16gg\	.	16ccc#\	.	.	.	.	.	.	.	.	.	.
8d\	.	16gg\	.	16ccc#\	.	.	.	.	.	16a/L	.	16ee\L	.	.
.	.	16gg\JJ	.	16ccc#\JJ	.	.	.	.	.	16a/JJ	.	16ee\JJ	.	.
8c#\	.	16gg\LL	.	16ccc#\LL	.	.	.	.	.	8a/L	.	8ee\L	.	.
.	.	16gg\	.	16ccc#\	.	.	.	.	.	.	.	.	.	.
8A\J	.	16gg\	.	16ccc#\	.	.	.	.	.	8a/J	.	8ee\J	.	.
.	.	16gg\JJ	.	16ccc#\JJ	.	.	.	.	.	.	.	.	.	.
=171	=171	=171	=171	=171	=171	=171	=171	=171	=171	=171	=171	=171	=171	=171
8d\L	.	4ff#\	.	4ddd\	.	8d\	-son	4ff#\	-son	4dd\	.	4ff#\	2ryy	2ryy
16d\L	.	.	.	.	.	16f#\LL	e-	.	.	.	.	.	.	.
16c#\JJ	.	.	.	.	.	16e\JJ	.	.	.	.	.	.	.	.
8B\L	.	4r	.	4r	.	8d\L	-lei-	4dd\	e-	4r	.	4r	.	.
8A\J	.	.	.	.	.	8c#\J	.	.	.	.	.	.	.	.
!	!	!	!	!	!	!LO:LB:g=original	!	!LO:LB:g=original	!	!	!	!	!	!
=172	=172	=172	=172	=172	=172	=172	=172	=172	=172	=172	=172	=172	=172	=172
8G\L	.	8r	.	8r	.	8B\L	.	2dd\	-lei-	4dd\	.	4ff#\	2ryy	2ryy
16B\L	.	16ddd\LL	.	16ddd\LL	.	16d\L	.	.	.	.	.	.	.	.
16A\JJ	.	16ccc#\JJ	.	16ccc#\JJ	.	16c#\JJ	.	.	.	.	.	.	.	.
8G\L	.	8bb\L	.	8bb\L	.	8B\L	.	.	.	4r	.	4r	.	.
8F#\J	.	8aa\J	.	8aa\J	.	8A\J	.	.	.	.	.	.	.	.
=173	=173	=173	=173	=173	=173	=173	=173	=173	=173	=173	=173	=173	=173	=173
8E\L	.	8gg\L	.	8gg\L	.	8G\L	.	2dd\	-son	4dd\	.	4ff#\	2ryy	2ryy
16G\L	.	16bb\L	.	16bb\L	.	16B\L	.	.	.	.	.	.	.	.
16F#\JJ	.	16aa\JJ	.	16aa\JJ	.	16A\JJ	.	.	.	.	.	.	.	.
8E\L	.	8gg\L	.	8gg\L	.	8G/L	.	.	.	4r	.	4r	.	.
8D\J	.	8ff#\J	.	8ff#\J	.	8F#/J	.	.	.	.	.	.	.	.
=174	=174	=174	=174	=174	=174	=174	=174	=174	=174	=174	=174	=174	=174	=174
4A\	.	4ee 4cc# 4a/	.	4ee 4cc# 4a/	.	4c#\	-son	4ee\	e-	4a/	.	4ee\	2ryy	2ryy
8F#\L	.	4ff# 4a 4d/	.	4ff# 4a 4d/	.	4d\	e-	4ff#\	-lei-	4dd\	.	4ff#\	.	.
8G\J	.	.	.	.	.	.	.	.	.	.	.	.	.	.
=175	=175	=175	=175	=175	=175	=175	=175	=175	=175	=175	=175	=175	=175	=175
4A\	.	4ee 4cc# 4a/	.	4ee 4cc# 4a/	.	4c#\	-lei-	4ee\	-son	4a/	.	4ee\	2ryy	2ryy
4AA/	.	4ee 4cc# 4a/	.	4ee 4cc# 4a/	.	4c#\	-son	4ee\	e-	4a/	.	4ee\	.	.
=176	=176	=176	=176	=176	=176	=176	=176	=176	=176	=176	=176	=176	=176	=176
4D\	.	4ff# 4a 4d/	.	4ff# 4a 4d/	.	4d\	ki-	4ff#\	-lei-	4dd\	.	4ff#\	2ryy	2ryy
4D\	.	4ff# 4a 4d/	.	4ff# 4a 4d/	.	4d\	-ri-	4ff#\	.	4dd\	.	4ff#\	.	.
!	!	!	!	!	!	!	!	!	!	!	!	!LO:LB:g=original	!	!
=177	=177	=177	=177	=177	=177	=177	=177	=177	=177	=177	=177	=177	=177	=177
4D\	.	4ff# 4a 4d/	.	4ff# 4a 4d/	.	4d\	-e	4ff#\	-son	4dd\	.	4ff#\	2ryy	2ryy
4r	.	8r	.	8r	.	4r	.	4r	.	4r	.	4r	.	.
.	.	8dd\	.	8dd\	.	.	.	.	.	.	.	.	.	.
!LO:LB:g=original	!	!LO:LB:g=original	!	!	!	!	!	!	!	!	!	!	!	!
=178	=178	=178	=178	=178	=178	=178	=178	=178	=178	=178	=178	=178	=178	=178
!	!	!	!	!	!	!LO:N:vis=0	!	!LO:N:vis=0	!	!	!	!	!	!
8D\L	.	8dd\L	.	8ff#\L	.	1r	.	1r	.	8dd\L	.	8dd\L	2ryy	2ryy
8D\	.	8ff#\	.	8aa\	.	.	.	.	.	8dd\	.	8dd\	.	.
8D\	.	8ee\	.	8gg\	.	.	.	.	.	8dd\	.	8dd\	.	.
8D\J	.	8gg\J	.	8bb\J	.	.	.	.	.	8dd\J	.	8dd\J	.	.
=179	=179	=179	=179	=179	=179	=179	=179	=179	=179	=179	=179	=179	=179	=179
8D\L	.	8ff#\	.	8aa\L	.	.	.	.	.	8dd\L	.	8dd\L	2ryy	2ryy
8D\	.	4ff#\	.	4ddd\J	.	.	.	.	.	8dd\	.	8dd\	.	.
8D\	.	.	.	.	.	.	.	.	.	8dd\	.	8dd\	.	.
8D\J	.	8dd\	.	8dd\J	.	.	.	.	.	8dd\J	.	8dd\J	.	.
=180	=180	=180	=180	=180	=180	=180	=180	=180	=180	=180	=180	=180	=180	=180
8D\L	.	8dd\L	.	(8ff#\L	.	2r	.	2r	.	8dd\L	.	8dd\L	2ryy	2ryy
8D\	.	8ff#\	.	8aa\)	.	.	.	.	.	8dd\	.	8dd\	.	.
8D\	.	8ee\	.	(8gg\	.	.	.	.	.	8dd\	.	8dd\	.	.
8D\J	.	8gg\J	.	8bb\J)	.	.	.	.	.	8dd\J	.	8dd\J	.	.
=181	=181	=181	=181	=181	=181	=181	=181	=181	=181	=181	=181	=181	=181	=181
8D\L	.	8ff#\	.	8aa\L	.	4r	.	4r	.	8dd\L	.	8dd\L	2ryy	2ryy
8D\	.	4ff#\	.	4ddd\J	.	.	.	.	.	8dd\	.	8dd\	.	.
8D\	.	.	.	.	.	8r	.	8r	.	8dd\	.	8dd\	.	.
8F#\J	.	8ff#\	.	8aa\J	.	8d\	e-	8ff#\	e-	8dd\J	.	8ff#\J	.	.
=182	=182	=182	=182	=182	=182	=182	=182	=182	=182	=182	=182	=182	=182	=182
4G\	.	4ee\	.	4gg\	.	(4e\	-lei-	4gg\	-lei-	4ee\	.	4gg\	2ryy	2ryy
4B\	.	4cc#\	.	4ee\	.	4c#\)	.	4ee\	.	4a/	.	4ee\	.	.
!	!	!	!	!LO:LB:g=original	!	!	!	!	!	!	!	!	!	!
=183	=183	=183	=183	=183	=183	=183	=183	=183	=183	=183	=183	=183	=183	=183
!LO:TX:a:t=P:problem:mixed beam	!	!	!	!LO:TX:a:t=P:problem:mixed beam	!	!	!	!	!	!	!	!	!	!
8D/L	.	8dd\L	.	16dd\LL	.	8d\L	-son	4ff#\	-son	4dd\	.	4ff#\	2ryy	2ryy
.	.	.	.	16d/	.	.	.	.	.	.	.	.	.	.
8d\	.	16ff#\L	.	16dd\	.	8f#\J	e-	.	.	.	.	.	.	.
.	.	16ff#\JJ	.	16d/JJ	.	.	.	.	.	.	.	.	.	.
!	!	!	!	!LO:TX:a:t=P:problem:mixed beam	!	!	!	!	!	!	!	!	!	!
8c#\	.	16dd\LL	.	16dd\LL	.	8d\L	-lei-	4dd\	e-	4r	.	4r	.	.
.	.	16dd\	.	16d/	.	.	.	.	.	.	.	.	.	.
8B\J	.	16cc#\	.	16dd\	.	8c#\J	.	.	.	.	.	.	.	.
.	.	16cc#\JJ	.	16d/JJ	.	.	.	.	.	.	.	.	.	.
=184	=184	=184	=184	=184	=184	=184	=184	=184	=184	=184	=184	=184	=184	=184
!	!	!	!	!LO:TX:a:t=P:problem:mixed beam	!	!	!	!	!	!	!	!	!	!
8G\L	.	16b\LL	.	16dd\LL	.	8B\L	.	2dd\	-lei-	4dd\	.	4ff#\	2ryy	2ryy
.	.	16b\	.	16d/	.	.	.	.	.	.	.	.	.	.
8B\	.	16dd\	.	16dd\	.	8d\	.	.	.	.	.	.	.	.
.	.	16dd\JJ	.	16d/JJ	.	.	.	.	.	.	.	.	.	.
!	!	!	!	!LO:TX:a:t=P:problem:mixed beam	!	!	!	!	!	!	!	!	!	!
8A\	.	16b\LL	.	16dd\LL	.	8B\	.	.	.	4r	.	4r	.	.
.	.	16b\	.	16d/	.	.	.	.	.	.	.	.	.	.
8G\J	.	16a\	.	16dd\	.	8A\J	.	.	.	.	.	.	.	.
.	.	16a\JJ	.	16d/JJ	.	.	.	.	.	.	.	.	.	.
=185	=185	=185	=185	=185	=185	=185	=185	=185	=185	=185	=185	=185	=185	=185
!	!	!	!	!LO:TX:a:t=P:problem:mixed beam	!	!	!	!	!	!	!	!	!	!
8E\L	.	16g/LL	.	16dd\LL	.	8G\L	.	2dd\	-son	4dd\	.	4ff#\	2ryy	2ryy
.	.	16g/	.	16d/	.	.	.	.	.	.	.	.	.	.
8G\	.	16b/	.	16dd\	.	8B\	.	.	.	.	.	.	.	.
.	.	16b/JJ	.	16d/JJ	.	.	.	.	.	.	.	.	.	.
!	!	!	!	!LO:TX:a:t=P:problem:mixed beam	!	!	!	!	!	!	!	!	!	!
8E\	.	16g/LL	.	16dd\LL	.	8G\	.	.	.	4r	.	4r	.	.
.	.	16g/	.	16d/	.	.	.	.	.	.	.	.	.	.
8D\J	.	16f#/	.	16dd\	.	8F#\J	.	.	.	.	.	.	.	.
.	.	16f#/JJ	.	16d/JJ	.	.	.	.	.	.	.	.	.	.
=186	=186	=186	=186	=186	=186	=186	=186	=186	=186	=186	=186	=186	=186	=186
4A\	.	4cc#\	.	4ee\	.	4c#\	son	4ee\	.	4a/	.	4ee\	2ryy	2ryy
4D\	.	4dd\	.	4ff#\	.	4d\	e-	4ff#\	e-	4dd\	.	4ff#\	.	.
=187	=187	=187	=187	=187	=187	=187	=187	=187	=187	=187	=187	=187	=187	=187
4A\	.	4cc#\	.	4ee\	.	2c#\	-lei-	2ee\	-lei-	4a/	.	4ee\	2ryy	2ryy
4AA/	.	4cc#\	.	4ee\	.	.	.	.	.	4a/	.	4ee\	.	.
!	!	!	!	!	!	!LO:LB:g=original	!	!	!	!	!	!	!	!
=188	=188	=188	=188	=188	=188	=188	=188	=188	=188	=188	=188	=188	=188	=188
2D\	.	2dd\	.	2ff#\	.	2d\	-son	2ff#\	-son	2dd\	.	2ff#\	2ryy	2ryy
.	.	.	.	.	.	.	.	.	.	.	.	.	.	.
=189	=189	=189	=189	=189	=189	=189	=189	=189	=189	=189	=189	=189	=189	=189
2A\	.	4r	.	4r	.	2c#\	e-	2ee\	e-	4r	.	4r	2ryy	2ryy
.	.	4cc#\	.	4ee\	.	.	.	.	.	4a/	.	4ee\	.	.
=190	=190	=190	=190	=190	=190	=190	=190	=190	=190	=190	=190	=190	=190	=190
2d\	.	4r	.	4r	.	2d\	-lei-	2ff#\	-lei-	4r	.	4r	2ryy	2ryy
.	.	4dd\	.	4ff#\	.	.	.	.	.	4dd\	.	4ee\	.	.
!	!	!	!	!	!	!	!	!	!	!LO:LB:g=original	!	!	!	!
=191	=191	=191	=191	=191	=191	=191	=191	=191	=191	=191	=191	=191	=191	=191
2A\	.	4r	.	4r	.	2c#\	.	2ee\	.	4r	.	4r	2ryy	2ryy
.	.	4cc#\	.	4ee\	.	.	.	.	.	4a/	.	4ee\	.	.
=192	=192	=192	=192	=192	=192	=192	=192	=192	=192	=192	=192	=192	=192	=192
2D\	.	4dd\	.	4ff# 4a 4d/	.	2d\	-son	2ff#\	-son	2dd\	.	2ff#\	2ryy	2ryy
.	.	4r	.	4r	.	.	.	.	.	.	.	.	.	.
==	==	==	==	==	==	==	==	==	==	==	==	==	==	==
*-	*-	*-	*-	*-	*-	*-	*-	*-	*-	*-	*-	*-	*-	*-
!!!system-decoration: [s1,s2][s3,s4][s5,s6][s7,s8]s9
!!!EED: Antoni Szymański
!!!EST: 2020-10-03
!!!AIN: 3 empty 2 oboe 1 tenor 2 violn 1 vox
!!!ENC: Tomasz Grochalski
!!!END: 2020-05-19
